;Generated with Cura_SteamEngine 15.01
G28 ; Home extruder
G1 Z15 F100
M107 ; Turn off fan
G90 ; Absolute positioning
M82 ; Extruder in absolute mode
M190 S50
; Activate all used extruder
M104 T0 S200
G92 E0 ; Reset extruder position
; Wait for all used extruders to reach temperature
M109 T0 S200
G28 ; Home extruder
;Layer count: 21
;LAYER:0
M107
G0 F9000 X81.544 Y77.038 Z0.200
;TYPE:SKIRT
G1 F1800 X83.057 Y75.897 E0.06303
G1 X84.429 Y75.150 E0.11499
G1 X85.877 Y74.610 E0.16639
G1 X87.730 Y74.210 E0.22944
G1 X122.743 Y74.200 E1.39397
G1 X126.425 Y74.200 E1.51644
G1 X127.607 Y74.283 E1.55585
G1 X129.122 Y74.610 E1.60740
G1 X130.570 Y75.150 E1.65880
G1 X132.244 Y76.061 E1.72219
G1 X134.041 Y77.624 E1.80140
G1 X135.182 Y79.137 E1.86443
G1 X135.929 Y80.509 E1.91639
G1 X136.469 Y81.957 E1.96779
G1 X136.869 Y83.810 E2.03084
G1 X136.880 Y126.869 E3.46299
G1 X136.880 Y140.800 E3.92633
G1 X78.119 Y140.800 E5.88073
G1 X78.119 Y84.291 E7.76023
G1 X78.413 Y82.272 E7.82809
G1 X79.070 Y80.509 E7.89067
G1 X79.981 Y78.835 E7.95405
G1 X81.544 Y77.038 E8.03327
G0 F9000 X81.818 Y77.333
G1 F1800 X83.275 Y76.234 E8.09397
G1 X84.596 Y75.515 E8.14399
G1 X85.990 Y74.995 E8.19348
G1 X87.773 Y74.610 E8.25415
G1 X122.743 Y74.600 E9.41725
G1 X126.411 Y74.600 E9.53925
G1 X127.550 Y74.680 E9.57723
G1 X129.009 Y74.995 E9.62687
G1 X130.403 Y75.515 E9.67636
G1 X132.014 Y76.391 E9.73735
G1 X133.746 Y77.898 E9.81371
G1 X134.845 Y79.355 E9.87441
G1 X135.564 Y80.676 E9.92443
G1 X136.084 Y82.070 E9.97392
G1 X136.469 Y83.853 E10.03459
G1 X136.480 Y126.869 E11.46531
G1 X136.480 Y140.400 E11.91535
G1 X78.519 Y140.400 E13.84314
G1 X78.519 Y84.320 E15.70837
G1 X78.802 Y82.372 E15.77384
G1 X79.435 Y80.676 E15.83405
G1 X80.311 Y79.065 E15.89504
G1 X81.818 Y77.333 E15.97140
G0 F9000 X82.093 Y77.627
G1 F1800 X83.492 Y76.571 E16.02970
G1 X84.762 Y75.880 E16.07779
G1 X86.102 Y75.380 E16.12536
G1 X87.816 Y75.010 E16.18368
G1 X122.743 Y75.000 E17.34535
G1 X126.397 Y75.000 E17.46689
G1 X127.494 Y75.077 E17.50346
G1 X128.897 Y75.380 E17.55120
G1 X130.237 Y75.880 E17.59877
G1 X131.785 Y76.722 E17.65738
G1 X133.452 Y78.173 E17.73089
G1 X134.508 Y79.572 E17.78919
G1 X135.199 Y80.842 E17.83728
G1 X135.699 Y82.182 E17.88485
G1 X136.069 Y83.896 E17.94317
G1 X136.080 Y126.869 E19.37246
G1 X136.080 Y140.000 E19.80919
G1 X78.919 Y140.000 E21.71038
G1 X78.919 Y84.349 E23.56134
G1 X79.192 Y82.472 E23.62442
G1 X79.800 Y80.842 E23.68229
G1 X80.642 Y79.294 E23.74090
G1 X82.093 Y77.627 E23.81440
G0 F9000 X82.367 Y77.921
G1 F1800 X83.709 Y76.908 E23.87033
G1 X84.928 Y76.245 E23.91648
G1 X86.215 Y75.765 E23.96216
G1 X87.858 Y75.410 E24.01807
G1 X122.743 Y75.400 E25.17835
G1 X126.382 Y75.400 E25.29939
G1 X127.437 Y75.474 E25.33456
G1 X128.784 Y75.765 E25.38040
G1 X130.071 Y76.245 E25.42608
G1 X131.555 Y77.052 E25.48227
G1 X133.158 Y78.447 E25.55294
G1 X134.171 Y79.789 E25.60887
G1 X134.834 Y81.008 E25.65502
G1 X135.314 Y82.295 E25.70071
G1 X135.669 Y83.938 E25.75661
G1 X135.680 Y126.869 E27.18451
G1 X135.680 Y139.600 E27.60794
G1 X79.319 Y139.600 E29.48251
G1 X79.319 Y84.378 E31.31921
G1 X79.582 Y82.572 E31.37991
G1 X80.165 Y81.008 E31.43542
G1 X80.972 Y79.524 E31.49161
G1 X82.367 Y77.921 E31.56228
G0 F9000 X82.641 Y78.215
G1 F1800 X83.926 Y77.246 E31.61581
G1 X85.094 Y76.610 E31.66005
G1 X86.328 Y76.150 E31.70385
G1 X87.901 Y75.810 E31.75738
G1 X122.743 Y75.800 E32.91623
G1 X126.368 Y75.800 E33.03679
G1 X127.381 Y75.871 E33.07057
G1 X128.671 Y76.150 E33.11447
G1 X129.905 Y76.610 E33.15827
G1 X131.325 Y77.383 E33.21204
G1 X132.864 Y78.721 E33.27987
G1 X133.833 Y80.006 E33.33340
G1 X134.469 Y81.174 E33.37763
G1 X134.929 Y82.408 E33.42143
G1 X135.269 Y83.981 E33.47496
G1 X135.280 Y126.869 E34.90142
G1 X135.280 Y139.200 E35.31155
G1 X79.719 Y139.200 E37.15952
G1 X79.719 Y84.407 E38.98194
G1 X79.971 Y82.672 E39.04025
G1 X80.530 Y81.174 E39.09343
G1 X81.303 Y79.754 E39.14721
G1 X82.641 Y78.215 E39.21503
G0 F9000 X82.916 Y78.509
G1 F1800 X84.143 Y77.583 E39.26616
G1 X85.261 Y76.975 E39.30849
G1 X86.440 Y76.535 E39.35034
G1 X87.944 Y76.210 E39.40152
G1 X122.743 Y76.200 E40.55894
G1 X126.354 Y76.200 E40.67904
G1 X127.324 Y76.268 E40.71139
G1 X128.559 Y76.535 E40.75341
G1 X129.738 Y76.975 E40.79527
G1 X131.096 Y77.713 E40.84667
G1 X132.570 Y78.996 E40.91167
G1 X133.496 Y80.223 E40.96280
G1 X134.104 Y81.341 E41.00512
G1 X134.544 Y82.520 E41.04698
G1 X134.869 Y84.024 E41.09816
G1 X134.880 Y126.869 E42.52319
G1 X134.880 Y138.800 E42.92001
G1 X80.119 Y138.800 E44.74137
G1 X80.119 Y84.436 E46.54953
G1 X80.361 Y82.772 E46.60545
G1 X80.895 Y81.341 E46.65625
G1 X81.633 Y79.983 E46.70766
G1 X82.916 Y78.509 E46.77266
G0 F9000 X83.190 Y78.803
G1 F1800 X84.361 Y77.920 E46.82144
G1 X85.427 Y77.340 E46.86180
G1 X86.553 Y76.920 E46.90177
G1 X87.986 Y76.610 E46.95054
G1 X122.743 Y76.600 E48.10656
G1 X126.340 Y76.600 E48.22619
G1 X127.268 Y76.665 E48.25714
G1 X128.446 Y76.920 E48.29722
G1 X129.572 Y77.340 E48.33720
G1 X130.866 Y78.044 E48.38619
G1 X132.276 Y79.270 E48.44834
G1 X133.159 Y80.441 E48.49712
G1 X133.739 Y81.507 E48.53748
G1 X134.159 Y82.633 E48.57745
G1 X134.469 Y84.067 E48.62625
G1 X134.480 Y126.869 E50.04985
G1 X134.480 Y138.400 E50.43337
G1 X80.519 Y138.400 E52.22812
G1 X80.519 Y84.465 E54.02201
G1 X80.751 Y82.871 E54.07558
G1 X81.260 Y81.507 E54.12400
G1 X81.964 Y80.213 E54.17300
G1 X83.190 Y78.803 E54.23515
G0 F9000 X83.464 Y79.097
G1 F1800 X84.578 Y78.257 E54.28155
G1 X85.593 Y77.705 E54.31998
G1 X86.666 Y77.304 E54.35808
G1 X88.029 Y77.010 E54.40445
G1 X122.743 Y77.000 E55.55905
G1 X126.326 Y77.000 E55.67822
G1 X127.211 Y77.062 E55.70772
G1 X128.333 Y77.304 E55.74590
G1 X129.406 Y77.705 E55.78400
G1 X130.637 Y78.374 E55.83060
G1 X131.982 Y79.544 E55.88989
G1 X132.822 Y80.658 E55.93629
G1 X133.374 Y81.673 E55.97472
G1 X133.775 Y82.746 E56.01282
G1 X134.069 Y84.109 E56.05920
G1 X134.080 Y126.869 E57.48140
G1 X134.080 Y138.000 E57.85162
G1 X80.919 Y138.000 E59.61976
G1 X80.919 Y84.494 E61.39938
G1 X81.140 Y82.971 E61.45056
G1 X81.625 Y81.673 E61.49665
G1 X82.294 Y80.442 E61.54325
G1 X83.464 Y79.097 E61.60254
G0 F9000 X83.739 Y79.391
G1 F1800 X84.795 Y78.594 E61.64655
G1 X85.760 Y78.069 E61.68308
G1 X86.778 Y77.689 E61.71923
G1 X88.072 Y77.410 E61.76325
G1 X122.743 Y77.400 E62.91642
G1 X126.312 Y77.400 E63.03512
G1 X127.155 Y77.459 E63.06323
G1 X128.221 Y77.689 E63.09950
G1 X129.239 Y78.069 E63.13564
G1 X130.407 Y78.705 E63.17987
G1 X131.688 Y79.819 E63.23634
G1 X132.485 Y80.875 E63.28034
G1 X133.010 Y81.840 E63.31688
G1 X133.390 Y82.858 E63.35302
G1 X133.669 Y84.152 E63.39705
G1 X133.680 Y126.869 E64.81782
G1 X133.680 Y137.600 E65.17473
G1 X81.319 Y137.600 E66.91627
G1 X81.319 Y84.523 E68.68162
G1 X81.530 Y83.071 E68.73042
G1 X81.989 Y81.840 E68.77411
G1 X82.625 Y80.672 E68.81835
G1 X83.739 Y79.391 E68.87481
G0 F9000 X84.013 Y79.685
G1 F1800 X85.012 Y78.931 E68.91644
G1 X85.926 Y78.434 E68.95104
G1 X86.891 Y78.074 E68.98530
G1 X88.115 Y77.810 E69.02695
G1 X122.743 Y77.800 E70.17868
G1 X126.298 Y77.800 E70.29692
G1 X127.098 Y77.856 E70.32359
G1 X128.108 Y78.074 E70.35796
G1 X129.073 Y78.434 E70.39222
G1 X130.178 Y79.035 E70.43405
G1 X131.394 Y80.093 E70.48766
G1 X132.148 Y81.092 E70.52929
G1 X132.645 Y82.006 E70.56389
G1 X133.005 Y82.971 E70.59815
G1 X133.269 Y84.195 E70.63980
G1 X133.280 Y126.869 E72.05914
G1 X133.280 Y137.200 E72.40275
G1 X81.719 Y137.200 E74.11768
G1 X81.719 Y84.552 E75.86876
G1 X81.920 Y83.171 E75.91517
G1 X82.354 Y82.006 E75.95652
G1 X82.955 Y80.901 E75.99836
G1 X84.013 Y79.685 E76.05197
G0 F9000 X84.287 Y79.979
G1 F1800 X85.229 Y79.269 E76.09120
G1 X86.092 Y78.799 E76.12389
G1 X87.004 Y78.459 E76.15626
G1 X88.157 Y78.210 E76.19549
G1 X122.743 Y78.200 E77.34583
G1 X126.284 Y78.200 E77.46360
G1 X127.042 Y78.253 E77.48887
G1 X127.995 Y78.459 E77.52130
G1 X128.907 Y78.799 E77.55368
G1 X129.948 Y79.366 E77.59310
G1 X131.100 Y80.367 E77.64386
G1 X131.810 Y81.309 E77.68310
G1 X132.280 Y82.172 E77.71578
G1 X132.620 Y83.084 E77.74815
G1 X132.869 Y84.237 E77.78739
G1 X132.880 Y126.869 E79.20533
G1 X132.880 Y136.800 E79.53564
G1 X82.119 Y136.800 E81.22396
G1 X82.119 Y84.581 E82.96077
G1 X82.309 Y83.271 E83.00479
G1 X82.719 Y82.172 E83.04381
G1 X83.286 Y81.131 E83.08323
G1 X84.287 Y79.979 E83.13399
G0 F9000 X84.562 Y80.274
G1 F1800 X85.447 Y79.606 E83.17087
G1 X86.259 Y79.164 E83.20162
G1 X87.117 Y78.844 E83.23208
G1 X88.200 Y78.610 E83.26893
G1 X122.743 Y78.600 E84.41784
G1 X126.270 Y78.600 E84.53514
G1 X126.985 Y78.650 E84.55898
G1 X127.882 Y78.844 E84.58951
G1 X128.740 Y79.164 E84.61996
G1 X129.719 Y79.696 E84.65702
G1 X130.805 Y80.642 E84.70493
G1 X131.473 Y81.527 E84.74181
G1 X131.915 Y82.339 E84.77255
G1 X132.235 Y83.197 E84.80301
G1 X132.469 Y84.280 E84.83986
G1 X132.480 Y126.869 E86.25638
G1 X132.480 Y136.400 E86.57338
G1 X82.519 Y136.400 E88.23509
G1 X82.519 Y84.609 E89.95767
G1 X82.699 Y83.370 E89.99931
G1 X83.084 Y82.339 E90.03591
G1 X83.616 Y81.360 E90.07297
G1 X84.562 Y80.274 E90.12088
G0 F9000 X84.836 Y80.568
G1 F1800 X85.664 Y79.943 E90.15538
G1 X86.425 Y79.529 E90.18419
G1 X87.229 Y79.229 E90.21274
G1 X88.243 Y79.010 E90.24724
G1 X122.743 Y79.000 E91.39471
G1 X126.256 Y79.000 E91.51156
G1 X126.929 Y79.047 E91.53399
G1 X127.770 Y79.229 E91.56261
G1 X128.574 Y79.529 E91.59116
G1 X129.489 Y80.027 E91.62580
G1 X130.511 Y80.916 E91.67086
G1 X131.136 Y81.744 E91.70536
G1 X131.550 Y82.505 E91.73418
G1 X131.850 Y83.309 E91.76272
G1 X132.069 Y84.323 E91.79722
G1 X132.080 Y126.869 E93.21231
G1 X132.080 Y136.000 E93.51601
G1 X82.919 Y136.000 E95.15111
G1 X82.919 Y84.638 E96.85941
G1 X83.089 Y83.470 E96.89867
G1 X83.449 Y82.505 E96.93293
G1 X83.947 Y81.590 E96.96758
G1 X84.836 Y80.568 E97.01263
G0 F9000 X85.110 Y80.862
G1 F1800 X85.881 Y80.280 E97.04476
G1 X86.591 Y79.894 E97.07164
G1 X87.342 Y79.614 E97.09829
G1 X88.286 Y79.410 E97.13042
G1 X122.743 Y79.400 E98.27646
G1 X126.242 Y79.400 E98.39284
G1 X126.872 Y79.444 E98.41384
G1 X127.657 Y79.614 E98.44056
G1 X128.408 Y79.894 E98.46722
G1 X129.260 Y80.357 E98.49947
G1 X130.217 Y81.190 E98.54167
G1 X130.799 Y81.961 E98.57380
G1 X131.185 Y82.671 E98.60068
G1 X131.465 Y83.422 E98.62733
G1 X131.669 Y84.366 E98.65946
G1 X131.680 Y126.869 E100.07311
G1 X131.680 Y135.600 E100.36351
G1 X83.319 Y135.600 E101.97200
G1 X83.319 Y84.667 E103.66604
G1 X83.479 Y83.570 E103.70291
G1 X83.814 Y82.671 E103.73482
G1 X84.277 Y81.819 E103.76707
G1 X85.110 Y80.862 E103.80927
G0 F9000 X85.385 Y81.156
G1 F1800 X86.098 Y80.617 E103.83900
G1 X86.758 Y80.259 E103.86397
G1 X87.455 Y79.999 E103.88871
G1 X88.328 Y79.810 E103.91842
G1 X122.743 Y79.800 E105.06307
G1 X126.228 Y79.800 E105.17898
G1 X126.816 Y79.841 E105.19859
G1 X127.544 Y79.999 E105.22336
G1 X128.241 Y80.259 E105.24811
G1 X129.030 Y80.688 E105.27798
G1 X129.923 Y81.465 E105.31735
G1 X130.462 Y82.178 E105.34707
G1 X130.820 Y82.838 E105.37205
G1 X131.080 Y83.535 E105.39679
G1 X131.269 Y84.408 E105.42650
G1 X131.280 Y126.869 E106.83876
G1 X131.280 Y135.200 E107.11585
G1 X83.719 Y135.200 E108.69773
G1 X83.719 Y84.696 E110.37750
G1 X83.868 Y83.670 E110.41199
G1 X84.179 Y82.838 E110.44153
G1 X84.608 Y82.049 E110.47140
G1 X85.385 Y81.156 E110.51077
G0 F9000 X85.659 Y81.450
G1 F1800 X86.316 Y80.955 E110.53813
G1 X86.924 Y80.624 E110.56115
G1 X87.567 Y80.384 E110.58398
G1 X88.371 Y80.210 E110.61134
G1 X122.743 Y80.200 E111.75456
G1 X126.214 Y80.200 E111.87001
G1 X126.759 Y80.238 E111.88818
G1 X127.432 Y80.384 E111.91108
G1 X128.075 Y80.624 E111.93391
G1 X128.801 Y81.018 E111.96138
G1 X129.629 Y81.739 E111.99790
G1 X130.124 Y82.396 E112.02526
G1 X130.455 Y83.004 E112.04828
G1 X130.695 Y83.647 E112.07111
G1 X130.869 Y84.451 E112.09847
G1 X130.881 Y134.800 E113.77309
G1 X84.119 Y134.800 E115.32840
G1 X84.119 Y84.725 E116.99390
G1 X84.258 Y83.770 E117.02600
G1 X84.544 Y83.004 E117.05319
G1 X84.938 Y82.278 E117.08066
G1 X85.659 Y81.450 E117.11718
G0 F9000 X85.933 Y81.744
G1 F1800 X86.533 Y81.292 E117.14217
G1 X87.090 Y80.989 E117.16326
G1 X87.680 Y80.768 E117.18421
G1 X88.414 Y80.610 E117.20918
G1 X122.743 Y80.600 E118.35097
G1 X126.200 Y80.600 E118.46595
G1 X126.702 Y80.635 E118.48269
G1 X127.319 Y80.768 E118.50368
G1 X127.909 Y80.989 E118.52464
G1 X128.571 Y81.349 E118.54970
G1 X129.335 Y82.013 E118.58337
G1 X129.787 Y82.613 E118.60835
G1 X130.090 Y83.170 E118.62944
G1 X130.311 Y83.760 E118.65039
G1 X130.469 Y84.494 E118.67537
G1 X130.481 Y134.400 E120.33525
G1 X84.519 Y134.400 E121.86395
G1 X84.519 Y84.754 E123.51518
G1 X84.648 Y83.870 E123.54490
G1 X84.909 Y83.170 E123.56974
G1 X85.269 Y82.508 E123.59481
G1 X85.933 Y81.744 E123.62847
G0 F9000 X86.208 Y82.038
G1 F1800 X86.750 Y81.629 E123.65106
G1 X87.257 Y81.353 E123.67026
G1 X87.793 Y81.153 E123.68928
G1 X88.457 Y81.010 E123.71188
G1 X126.185 Y81.000 E124.96671
G1 X126.646 Y81.032 E124.98208
G1 X127.206 Y81.153 E125.00114
G1 X127.742 Y81.353 E125.02017
G1 X128.342 Y81.679 E125.04288
G1 X129.041 Y82.288 E125.07371
G1 X129.450 Y82.830 E125.09630
G1 X129.726 Y83.337 E125.11550
G1 X129.926 Y83.873 E125.13453
G1 X130.069 Y84.537 E125.15712
G1 X130.081 Y134.000 E126.80226
G1 X84.919 Y134.000 E128.30436
G1 X84.919 Y84.783 E129.94132
G1 X85.037 Y83.969 E129.96868
G1 X85.273 Y83.337 E129.99112
G1 X85.599 Y82.737 E130.01383
G1 X86.208 Y82.038 E130.04466
G0 F9000 X86.482 Y82.332
G1 F1800 X86.967 Y81.966 E130.06487
G1 X87.423 Y81.718 E130.08214
G1 X87.905 Y81.538 E130.09925
G1 X88.499 Y81.410 E130.11946
G1 X126.171 Y81.400 E131.37243
G1 X126.589 Y81.429 E131.38637
G1 X127.094 Y81.538 E131.40355
G1 X127.576 Y81.718 E131.42067
G1 X128.112 Y82.010 E131.44097
G1 X128.747 Y82.562 E131.46895
G1 X129.113 Y83.047 E131.48916
G1 X129.361 Y83.503 E131.50643
G1 X129.541 Y83.985 E131.52354
G1 X129.669 Y84.579 E131.54375
G1 X129.681 Y133.600 E133.17419
G1 X85.319 Y133.600 E134.64968
G1 X85.319 Y84.812 E136.27238
G1 X85.427 Y84.069 E136.29735
G1 X85.638 Y83.503 E136.31744
G1 X85.930 Y82.967 E136.33774
G1 X86.482 Y82.332 E136.36572
G0 F9000 X86.756 Y82.626
G1 F1800 X87.184 Y82.303 E136.38356
G1 X87.589 Y82.083 E136.39889
G1 X88.018 Y81.923 E136.41412
G1 X88.542 Y81.810 E136.43195
G1 X126.157 Y81.800 E137.68303
G1 X126.533 Y81.826 E137.69556
G1 X126.981 Y81.923 E137.71081
G1 X127.410 Y82.083 E137.72604
G1 X127.882 Y82.340 E137.74391
G1 X128.453 Y82.836 E137.76907
G1 X128.776 Y83.264 E137.78690
G1 X128.996 Y83.669 E137.80223
G1 X129.156 Y84.098 E137.81746
G1 X129.269 Y84.622 E137.83529
G1 X129.281 Y133.200 E139.45100
G1 X85.719 Y133.200 E140.89988
G1 X85.719 Y84.841 E142.50830
G1 X85.817 Y84.169 E142.53089
G1 X86.003 Y83.669 E142.54863
G1 X86.260 Y83.197 E142.56651
G1 X86.756 Y82.626 E142.59167
G0 F9000 X87.402 Y82.641
G1 F1800 X87.756 Y82.448 E142.60508
G1 X88.131 Y82.308 E142.61839
G1 X88.585 Y82.210 E142.63384
G1 X126.143 Y82.200 E143.88302
G1 X126.476 Y82.223 E143.89412
G1 X126.868 Y82.308 E143.90746
G1 X127.243 Y82.448 E143.92078
G1 X127.653 Y82.671 E143.93630
G1 X128.158 Y83.111 E143.95858
G1 X128.438 Y83.482 E143.97404
G1 X128.631 Y83.836 E143.98745
G1 X128.771 Y84.211 E144.00076
G1 X128.869 Y84.665 E144.01621
G1 X128.880 Y132.800 E145.61719
G1 X86.119 Y132.800 E147.03942
G1 X86.119 Y84.870 E148.63358
G1 X86.206 Y84.269 E148.65378
G1 X86.368 Y83.836 E148.66915
G1 X86.591 Y83.426 E148.68468
G1 X87.031 Y82.921 E148.70696
G1 X87.402 Y82.641 E148.72241
G0 F9000 X87.619 Y82.978
G1 F1800 X87.922 Y82.813 E148.73389
G1 X88.244 Y82.693 E148.74532
G1 X88.627 Y82.610 E148.75835
G1 X126.129 Y82.600 E150.00568
G1 X126.420 Y82.620 E150.01538
G1 X126.755 Y82.693 E150.02678
G1 X127.077 Y82.813 E150.03821
G1 X127.423 Y83.001 E150.05131
G1 X127.864 Y83.385 E150.07076
G1 X128.101 Y83.699 E150.08384
G1 X128.266 Y84.002 E150.09532
G1 X128.386 Y84.324 E150.10674
G1 X128.469 Y84.707 E150.11978
G1 X128.480 Y132.400 E151.70605
G1 X86.519 Y132.400 E153.10168
G1 X86.519 Y84.899 E154.68157
G1 X86.596 Y84.369 E154.69939
G1 X86.733 Y84.002 E154.71242
G1 X86.921 Y83.656 E154.72551
G1 X87.305 Y83.215 E154.74496
G1 X87.619 Y82.978 E154.75805
G0 F9000 X87.836 Y83.315
G1 F1800 X88.088 Y83.178 E154.76759
G1 X88.356 Y83.078 E154.77710
G1 X88.670 Y83.010 E154.78779
