;Generated with Cura_SteamEngine 15.01
G28 ; Home extruder
G1 Z15 F100
M107 ; Turn off fan
G90 ; Absolute positioning
M82 ; Extruder in absolute mode
M190 S50
; Activate all used extruder
M104 T0 S200
G92 E0 ; Reset extruder position
; Wait for all used extruders to reach temperature
M109 T0 S200
G28 ; Home extruder
;Layer count: 30
;LAYER:0
M107
G0 F9000 X42.304 Y75.700 Z0.200
;TYPE:SKIRT
G1 F1800 X161.238 Y75.700 E3.95576
G1 X162.577 Y75.794 E4.00041
G1 X164.223 Y76.154 E4.05645
G1 X165.798 Y76.738 E4.11232
G1 X167.292 Y77.553 E4.16892
G1 X168.642 Y78.566 E4.22506
G1 X169.829 Y79.753 E4.28089
G1 X170.851 Y81.115 E4.33752
G1 X171.654 Y82.597 E4.39359
G1 X172.238 Y84.157 E4.44899
G1 X172.674 Y86.154 E4.51697
G1 X172.695 Y125.497 E5.82553
G1 X172.695 Y127.845 E5.90362
G1 X172.601 Y129.182 E5.94820
G1 X172.238 Y130.842 E6.00472
G1 X171.654 Y132.402 E6.06012
G1 X170.851 Y133.884 E6.11618
G1 X169.829 Y135.246 E6.17282
G1 X168.642 Y136.433 E6.22865
G1 X167.292 Y137.446 E6.28479
G1 X165.798 Y138.261 E6.34139
G1 X164.223 Y138.845 E6.39726
G1 X162.240 Y139.279 E6.46478
G1 X57.545 Y139.300 E9.94695
G1 X42.304 Y139.300 E10.45386
G1 X42.304 Y75.700 E12.56921
G0 F9000 X42.704 Y76.100
G1 F1800 X161.224 Y76.100 E16.51120
G1 X162.520 Y76.191 E16.55441
G1 X164.110 Y76.539 E16.60855
G1 X165.632 Y77.103 E16.66253
G1 X167.075 Y77.891 E16.71722
G1 X168.379 Y78.869 E16.77143
G1 X169.526 Y80.016 E16.82538
G1 X170.513 Y81.332 E16.88009
G1 X171.289 Y82.763 E16.93424
G1 X171.853 Y84.270 E16.98776
G1 X172.274 Y86.197 E17.05336
G1 X172.295 Y125.498 E18.36052
G1 X172.295 Y127.831 E18.43811
G1 X172.204 Y129.125 E18.48126
G1 X171.853 Y130.729 E18.53587
G1 X171.289 Y132.236 E18.58939
G1 X170.513 Y133.667 E18.64353
G1 X169.526 Y134.983 E18.69824
G1 X168.379 Y136.130 E18.75219
G1 X167.075 Y137.108 E18.80641
G1 X165.632 Y137.896 E18.86109
G1 X164.110 Y138.460 E18.91508
G1 X162.197 Y138.879 E18.98021
G1 X57.545 Y138.900 E22.46095
G1 X42.704 Y138.900 E22.95457
G1 X42.704 Y76.100 E25.04330
G0 F9000 X43.104 Y76.500
G1 F1800 X161.210 Y76.500 E28.97152
G1 X162.463 Y76.588 E29.01330
G1 X163.997 Y76.923 E29.06553
G1 X165.466 Y77.468 E29.11764
G1 X166.858 Y78.228 E29.17039
G1 X168.117 Y79.172 E29.22273
G1 X169.223 Y80.278 E29.27475
G1 X170.175 Y81.548 E29.32754
G1 X170.924 Y82.929 E29.37979
G1 X171.469 Y84.383 E29.43144
G1 X171.874 Y86.240 E29.49465
G1 X171.895 Y125.498 E30.80038
G1 X171.895 Y127.817 E30.87751
G1 X171.807 Y129.068 E30.91922
G1 X171.469 Y130.616 E30.97192
G1 X170.924 Y132.070 E31.02357
G1 X170.175 Y133.451 E31.07582
G1 X169.223 Y134.721 E31.12861
G1 X168.117 Y135.827 E31.18063
G1 X166.858 Y136.771 E31.23297
G1 X165.466 Y137.531 E31.28572
G1 X163.997 Y138.076 E31.33784
G1 X162.153 Y138.479 E31.40061
G1 X57.545 Y138.500 E34.87989
G1 X43.104 Y138.500 E35.36020
G1 X43.104 Y76.500 E37.42233
G0 F9000 X43.504 Y76.900
G1 F1800 X161.196 Y76.900 E41.33678
G1 X162.406 Y76.985 E41.37712
G1 X163.884 Y77.308 E41.42744
G1 X165.300 Y77.833 E41.47767
G1 X166.641 Y78.565 E41.52849
G1 X167.854 Y79.475 E41.57892
G1 X168.920 Y80.541 E41.62906
G1 X169.838 Y81.764 E41.67992
G1 X170.559 Y83.095 E41.73027
G1 X171.084 Y84.497 E41.78006
G1 X171.475 Y86.284 E41.84091
G1 X171.495 Y125.498 E43.14517
G1 X171.495 Y127.802 E43.22180
G1 X171.410 Y129.011 E43.26211
G1 X171.084 Y130.502 E43.31287
G1 X170.559 Y131.904 E43.36267
G1 X169.838 Y133.235 E43.41301
G1 X168.920 Y134.458 E43.46388
G1 X167.854 Y135.524 E43.51402
G1 X166.641 Y136.434 E43.56445
G1 X165.300 Y137.166 E43.61527
G1 X163.884 Y137.691 E43.66550
G1 X162.110 Y138.079 E43.72589
G1 X57.545 Y138.100 E47.20374
G1 X43.504 Y138.100 E47.67075
G1 X43.504 Y76.900 E49.70627
G0 F9000 X43.904 Y77.300
G1 F1800 X161.182 Y77.300 E53.60695
G1 X162.349 Y77.382 E53.64586
G1 X163.771 Y77.693 E53.69427
G1 X165.133 Y78.198 E53.74259
G1 X166.424 Y78.902 E53.79149
G1 X167.591 Y79.778 E53.84003
G1 X168.617 Y80.804 E53.88829
G1 X169.500 Y81.981 E53.93723
G1 X170.194 Y83.262 E53.98568
G1 X170.699 Y84.610 E54.03356
G1 X171.075 Y86.327 E54.09202
G1 X171.095 Y125.498 E55.39486
G1 X171.095 Y127.788 E55.47102
G1 X171.013 Y128.954 E55.50990
G1 X170.699 Y130.389 E55.55876
G1 X170.194 Y131.737 E55.60663
G1 X169.500 Y133.018 E55.65509
G1 X168.617 Y134.195 E55.70403
G1 X167.591 Y135.221 E55.75229
G1 X166.424 Y136.097 E55.80082
G1 X165.133 Y136.801 E55.84973
G1 X163.771 Y137.306 E55.89804
G1 X162.067 Y137.679 E55.95606
G1 X57.545 Y137.700 E59.43248
G1 X43.904 Y137.700 E59.88618
G1 X43.904 Y77.300 E61.89509
G0 F9000 X44.304 Y77.700
G1 F1800 X161.168 Y77.700 E65.78200
G1 X162.292 Y77.779 E65.81948
G1 X163.659 Y78.078 E65.86602
G1 X164.967 Y78.563 E65.91242
G1 X166.207 Y79.240 E65.95941
G1 X167.328 Y80.081 E66.00602
G1 X168.314 Y81.067 E66.05240
G1 X169.162 Y82.197 E66.09939
G1 X169.829 Y83.428 E66.14596
G1 X170.315 Y84.724 E66.19199
G1 X170.675 Y86.370 E66.24803
G1 X170.695 Y125.498 E67.54944
G1 X170.695 Y127.774 E67.62514
G1 X170.616 Y128.897 E67.66258
G1 X170.315 Y130.275 E67.70949
G1 X169.829 Y131.571 E67.75553
G1 X169.162 Y132.802 E67.80210
G1 X168.314 Y133.932 E67.84909
G1 X167.328 Y134.918 E67.89546
G1 X166.207 Y135.759 E67.94207
G1 X164.967 Y136.436 E67.98906
G1 X163.659 Y136.921 E68.03546
G1 X162.024 Y137.279 E68.09113
G1 X57.545 Y137.300 E71.56612
G1 X44.304 Y137.300 E72.00651
G1 X44.304 Y77.700 E73.98882
G0 F9000 X44.704 Y78.100
G1 F1800 X161.154 Y78.100 E77.86196
G1 X162.235 Y78.176 E77.89800
G1 X163.546 Y78.462 E77.94263
G1 X164.801 Y78.928 E77.98716
G1 X165.990 Y79.577 E78.03221
G1 X167.066 Y80.384 E78.07695
G1 X168.011 Y81.329 E78.12140
G1 X168.825 Y82.414 E78.16651
G1 X169.464 Y83.594 E78.21114
G1 X169.930 Y84.837 E78.25530
G1 X170.275 Y86.414 E78.30899
G1 X170.295 Y125.498 E79.60893
G1 X170.295 Y127.760 E79.68416
G1 X170.219 Y128.840 E79.72017
G1 X169.930 Y130.162 E79.76518
G1 X169.464 Y131.405 E79.80933
G1 X168.825 Y132.585 E79.85396
G1 X168.011 Y133.670 E79.89908
G1 X167.066 Y134.615 E79.94353
G1 X165.990 Y135.422 E79.98826
G1 X164.801 Y136.071 E80.03332
G1 X163.546 Y136.537 E80.07784
G1 X161.980 Y136.879 E80.13116
G1 X57.545 Y136.900 E83.60468
G1 X44.704 Y136.900 E84.03177
G1 X44.704 Y78.100 E85.98747
G0 F9000 X45.104 Y78.500
G1 F1800 X161.140 Y78.500 E89.84684
G1 X162.178 Y78.573 E89.88145
G1 X163.433 Y78.847 E89.92417
G1 X164.635 Y79.293 E89.96682
G1 X165.773 Y79.914 E90.00994
G1 X166.803 Y80.686 E90.05275
G1 X167.709 Y81.592 E90.09536
G1 X168.487 Y82.630 E90.13851
G1 X169.099 Y83.760 E90.18125
G1 X169.545 Y84.951 E90.22355
G1 X169.875 Y86.457 E90.27483
G1 X169.895 Y125.498 E91.57334
G1 X169.895 Y127.746 E91.64811
G1 X169.822 Y128.783 E91.68268
G1 X169.545 Y130.048 E91.72575
G1 X169.099 Y131.239 E91.76805
G1 X168.487 Y132.369 E91.81079
G1 X167.709 Y133.407 E91.85394
G1 X166.803 Y134.313 E91.89655
G1 X165.773 Y135.085 E91.93937
G1 X164.635 Y135.706 E91.98249
G1 X163.433 Y136.152 E92.02513
G1 X161.937 Y136.479 E92.07606
G1 X57.545 Y136.500 E95.54815
G1 X45.104 Y136.500 E95.96194
G1 X45.104 Y78.500 E97.89103
G0 F9000 X45.504 Y78.900
G1 F1800 X161.126 Y78.900 E101.73663
G1 X162.121 Y78.970 E101.76981
G1 X163.320 Y79.232 E101.81063
G1 X164.469 Y79.658 E101.85139
G1 X165.557 Y80.252 E101.89262
G1 X166.540 Y80.989 E101.93348
G1 X167.406 Y81.855 E101.97421
G1 X168.149 Y82.847 E102.01544
G1 X168.735 Y83.926 E102.05627
G1 X169.161 Y85.064 E102.09669
G1 X169.475 Y86.500 E102.14558
G1 X169.495 Y125.498 E103.44266
G1 X169.495 Y127.732 E103.51696
G1 X169.425 Y128.726 E103.55010
G1 X169.161 Y129.935 E103.59126
G1 X168.735 Y131.073 E103.63168
G1 X168.149 Y132.152 E103.67252
G1 X167.406 Y133.144 E103.71374
G1 X166.540 Y134.010 E103.75447
G1 X165.557 Y134.747 E103.79534
G1 X164.469 Y135.341 E103.83657
G1 X163.320 Y135.767 E103.87732
G1 X161.894 Y136.079 E103.92587
G1 X57.545 Y136.100 E107.39654
G1 X45.504 Y136.100 E107.79702
G1 X45.504 Y78.900 E109.69950
G0 F9000 X45.904 Y79.300
G1 F1800 X161.112 Y79.300 E113.53133
G1 X162.064 Y79.367 E113.56308
G1 X163.207 Y79.617 E113.60199
G1 X164.302 Y80.023 E113.64083
G1 X165.340 Y80.589 E113.68016
G1 X166.277 Y81.292 E113.71912
G1 X167.103 Y82.118 E113.75797
G1 X167.812 Y83.063 E113.79726
G1 X168.370 Y84.093 E113.83623
G1 X168.776 Y85.178 E113.87476
G1 X169.075 Y86.544 E113.92127
G1 X169.095 Y125.498 E115.21688
G1 X169.095 Y127.718 E115.29072
G1 X169.028 Y128.669 E115.32243
G1 X168.776 Y129.821 E115.36165
G1 X168.370 Y130.906 E115.40018
G1 X167.812 Y131.936 E115.43914
G1 X167.103 Y132.881 E115.47844
G1 X166.277 Y133.707 E115.51729
G1 X165.340 Y134.410 E115.55625
G1 X164.302 Y134.976 E115.59557
G1 X163.207 Y135.382 E115.63442
G1 X161.850 Y135.679 E115.68062
G1 X57.545 Y135.700 E119.14982
G1 X45.904 Y135.700 E119.53700
G1 X45.904 Y79.300 E121.41287
G0 F9000 X46.304 Y79.700
G1 F1800 X161.098 Y79.700 E125.23093
G1 X162.007 Y79.764 E125.26124
G1 X163.095 Y80.002 E125.29828
G1 X164.136 Y80.388 E125.33521
G1 X165.123 Y80.926 E125.37260
G1 X166.015 Y81.595 E125.40968
G1 X166.800 Y82.380 E125.44661
G1 X167.474 Y83.280 E125.48401
G1 X168.005 Y84.259 E125.52105
G1 X168.391 Y85.291 E125.55770
G1 X168.675 Y86.587 E125.60182
G1 X168.695 Y125.498 E126.89601
G1 X168.695 Y127.704 E126.96938
G1 X168.631 Y128.611 E126.99962
G1 X168.391 Y129.708 E127.03697
G1 X168.005 Y130.740 E127.07362
G1 X167.474 Y131.719 E127.11066
G1 X166.800 Y132.619 E127.14806
G1 X166.015 Y133.404 E127.18498
G1 X165.123 Y134.073 E127.22207
G1 X164.136 Y134.611 E127.25946
G1 X163.095 Y134.997 E127.29638
G1 X161.807 Y135.279 E127.34024
G1 X57.545 Y135.300 E130.80801
G1 X46.304 Y135.300 E131.18188
G1 X46.304 Y79.700 E133.03115
G0 F9000 X46.704 Y80.100
G1 F1800 X161.084 Y80.100 E136.83544
G1 X161.950 Y80.161 E136.86432
G1 X162.982 Y80.386 E136.89945
G1 X163.970 Y80.753 E136.93450
G1 X164.906 Y81.264 E136.96997
G1 X165.752 Y81.898 E137.00513
G1 X166.497 Y82.643 E137.04018
G1 X167.136 Y83.496 E137.07562
G1 X167.640 Y84.425 E137.11078
G1 X168.007 Y85.404 E137.14555
G1 X168.275 Y86.630 E137.18729
G1 X168.295 Y125.499 E138.48008
G1 X168.295 Y127.690 E138.55295
G1 X168.234 Y128.554 E138.58176
G1 X168.007 Y129.595 E138.61720
G1 X167.640 Y130.574 E138.65197
G1 X167.136 Y131.503 E138.68713
G1 X166.497 Y132.356 E138.72257
G1 X165.752 Y133.101 E138.75762
G1 X164.906 Y133.735 E138.79278
G1 X163.970 Y134.246 E138.82825
G1 X162.982 Y134.613 E138.86330
G1 X161.764 Y134.879 E138.90477
G1 X57.545 Y134.900 E142.37111
G1 X46.704 Y134.900 E142.73168
G1 X46.704 Y80.100 E144.55434
G0 F9000 X47.104 Y80.500
G1 F1800 X161.070 Y80.500 E148.34486
G1 X161.893 Y80.558 E148.37230
G1 X162.869 Y80.771 E148.40553
G1 X163.804 Y81.118 E148.43870
G1 X164.689 Y81.601 E148.47223
G1 X165.489 Y82.201 E148.50549
G1 X166.194 Y82.906 E148.53865
G1 X166.799 Y83.712 E148.57217
G1 X167.275 Y84.591 E148.60542
G1 X167.622 Y85.518 E148.63834
G1 X167.875 Y86.673 E148.67767
G1 X167.895 Y125.499 E149.96903
G1 X167.895 Y127.676 E150.04143
G1 X167.837 Y128.497 E150.06881
G1 X167.622 Y129.481 E150.10231
G1 X167.275 Y130.408 E150.13523
G1 X166.799 Y131.287 E150.16848
G1 X166.194 Y132.093 E150.20200
G1 X165.489 Y132.798 E150.23516
G1 X164.689 Y133.398 E150.26842
G1 X163.804 Y133.881 E150.30195
G1 X162.869 Y134.228 E150.33512
G1 X161.721 Y134.479 E150.37421
G1 X57.545 Y134.500 E153.83911
G1 X47.104 Y134.500 E154.18638
G1 X47.104 Y80.500 E155.98243
G0 F9000 X47.504 Y80.900
G1 F1800 X161.056 Y80.900 E159.75918
G1 X161.836 Y80.955 E159.78519
G1 X162.756 Y81.156 E159.81651
G1 X163.638 Y81.483 E159.84780
G1 X164.472 Y81.938 E159.87940
G1 X165.227 Y82.504 E159.91078
G1 X165.891 Y83.168 E159.94201
G1 X166.461 Y83.929 E159.97364
G1 X166.910 Y84.757 E160.00497
G1 X167.237 Y85.631 E160.03600
G1 X167.475 Y86.717 E160.07298
G1 X167.495 Y125.499 E161.36288
G1 X167.495 Y127.662 E161.43482
G1 X167.440 Y128.440 E161.46076
G1 X167.237 Y129.368 E161.49235
G1 X166.910 Y130.242 E161.52339
G1 X166.461 Y131.070 E161.55472
G1 X165.891 Y131.831 E161.58634
G1 X165.227 Y132.495 E161.61758
G1 X164.472 Y133.061 E161.64896
G1 X163.638 Y133.516 E161.68056
G1 X162.756 Y133.843 E161.71185
G1 X161.677 Y134.079 E161.74858
G1 X47.504 Y134.101 E165.54599
G1 X47.504 Y80.900 E167.31546
G0 F9000 X47.904 Y81.300
G1 F1800 X161.042 Y81.300 E171.07845
G1 X161.779 Y81.352 E171.10302
G1 X162.643 Y81.541 E171.13244
G1 X163.471 Y81.848 E171.16181
G1 X164.255 Y82.275 E171.19150
G1 X164.964 Y82.807 E171.22098
G1 X165.588 Y83.431 E171.25034
G1 X166.123 Y84.145 E171.28001
G1 X166.545 Y84.924 E171.30948
G1 X166.853 Y85.745 E171.33864
G1 X167.075 Y86.760 E171.37320
G1 X167.095 Y125.499 E172.66166
G1 X167.095 Y127.648 E172.73314
G1 X167.043 Y128.383 E172.75765
G1 X166.853 Y129.254 E172.78730
G1 X166.545 Y130.075 E172.81646
G1 X166.123 Y130.854 E172.84593
G1 X165.588 Y131.568 E172.87560
G1 X164.964 Y132.192 E172.90496
G1 X164.255 Y132.724 E172.93444
G1 X163.471 Y133.151 E172.96413
G1 X162.643 Y133.458 E172.99350
G1 X161.634 Y133.679 E173.02786
G1 X47.904 Y133.701 E176.81053
G1 X47.904 Y81.300 E178.55340
G0 F9000 X48.304 Y81.700
G1 F1800 X161.028 Y81.700 E182.30261
G1 X161.722 Y81.749 E182.32575
G1 X162.531 Y81.926 E182.35330
G1 X163.305 Y82.213 E182.38075
G1 X164.038 Y82.613 E182.40853
G1 X164.701 Y83.110 E182.43608
G1 X165.285 Y83.694 E182.46355
G1 X165.786 Y84.362 E182.49133
G1 X166.180 Y85.090 E182.51886
G1 X166.468 Y85.858 E182.54614
G1 X166.675 Y86.803 E182.57832
G1 X166.695 Y125.499 E183.86535
G1 X166.695 Y127.634 E183.93636
G1 X166.646 Y128.326 E183.95943
G1 X166.468 Y129.141 E183.98718
G1 X166.180 Y129.909 E184.01446
G1 X165.786 Y130.637 E184.04199
G1 X165.285 Y131.305 E184.06976
G1 X164.701 Y131.889 E184.09723
G1 X164.038 Y132.386 E184.12479
G1 X163.305 Y132.786 E184.15257
G1 X162.531 Y133.073 E184.18002
G1 X161.591 Y133.279 E184.21203
G1 X48.304 Y133.301 E187.97997
G1 X48.304 Y81.700 E189.69623
G0 F9000 X48.704 Y82.100
G1 F1800 X161.014 Y82.100 E193.43167
G1 X161.665 Y82.146 E193.45338
G1 X162.418 Y82.310 E193.47901
G1 X163.139 Y82.578 E193.50459
G1 X163.821 Y82.950 E193.53043
G1 X164.438 Y83.413 E193.55609
G1 X164.982 Y83.957 E193.58168
G1 X165.448 Y84.578 E193.60750
G1 X165.815 Y85.256 E193.63314
G1 X166.083 Y85.972 E193.65857
G1 X166.275 Y86.847 E193.68837
G1 X166.295 Y125.499 E194.97394
G1 X166.295 Y127.620 E195.04448
G1 X166.249 Y128.269 E195.06612
G1 X166.083 Y129.027 E195.09193
G1 X165.815 Y129.743 E195.11736
G1 X165.448 Y130.421 E195.14300
G1 X164.982 Y131.042 E195.16882
G1 X164.438 Y131.586 E195.19441
G1 X163.821 Y132.049 E195.22007
G1 X163.139 Y132.421 E195.24591
G1 X162.418 Y132.689 E195.27149
G1 X161.548 Y132.879 E195.30111
G1 X48.704 Y132.901 E199.05432
G1 X48.704 Y82.100 E200.74396
G0 F9000 X49.104 Y82.500
G1 F1800 X161.000 Y82.500 E204.46564
G1 X161.608 Y82.543 E204.48591
G1 X162.305 Y82.695 E204.50964
G1 X162.973 Y82.943 E204.53334
G1 X163.604 Y83.287 E204.55724
G1 X164.176 Y83.716 E204.58102
G1 X164.679 Y84.219 E204.60468
G1 X165.110 Y84.795 E204.62861
G1 X165.451 Y85.422 E204.65235
G1 X165.699 Y86.085 E204.67589
G1 X165.875 Y86.890 E204.70330
G1 X165.895 Y125.499 E205.98744
G1 X165.895 Y127.606 E206.05752
G1 X165.852 Y128.212 E206.07773
G1 X165.699 Y128.914 E206.10162
G1 X165.451 Y129.577 E206.12517
G1 X165.110 Y130.204 E206.14890
G1 X164.679 Y130.780 E206.17283
G1 X164.176 Y131.283 E206.19649
G1 X163.604 Y131.712 E206.22027
G1 X162.973 Y132.056 E206.24418
G1 X162.305 Y132.304 E206.26788
G1 X161.504 Y132.479 E206.29515
G1 X49.104 Y132.501 E210.03358
G1 X49.104 Y82.500 E211.69662
G0 F9000 X49.504 Y82.900
G1 F1800 X160.986 Y82.900 E215.40453
G1 X161.551 Y82.940 E215.42337
G1 X162.192 Y83.080 E215.44519
G1 X162.806 Y83.308 E215.46698
G1 X163.387 Y83.625 E215.48899
G1 X163.913 Y84.019 E215.51085
G1 X164.376 Y84.482 E215.53263
G1 X164.773 Y85.011 E215.55462
G1 X165.086 Y85.589 E215.57649
G1 X165.314 Y86.199 E215.59815
G1 X165.475 Y86.933 E215.62314
G1 X165.495 Y125.499 E216.90585
G1 X165.495 Y127.591 E216.97543
G1 X165.455 Y128.155 E216.99424
G1 X165.314 Y128.800 E217.01620
G1 X165.086 Y129.410 E217.03786
G1 X164.773 Y129.988 E217.05972
G1 X164.376 Y130.517 E217.08172
G1 X163.913 Y130.980 E217.10349
G1 X163.387 Y131.374 E217.12535
G1 X162.806 Y131.691 E217.14737
G1 X162.192 Y131.919 E217.16915
