;Generated with Cura_SteamEngine 15.01
G28 ; Home extruder
G1 Z15 F100
M107 ; Turn off fan
G90 ; Absolute positioning
M82 ; Extruder in absolute mode
M190 S50
; Activate all used extruder
M104 T0 S200
G92 E0 ; Reset extruder position
; Wait for all used extruders to reach temperature
M109 T0 S200
G28 ; Home extruder
;Layer count: 15
;LAYER:0
M107
G0 F9000 X75.785 Y76.492 Z0.200
;TYPE:SKIRT
G1 F1800 X76.753 Y75.605 E0.04367
G1 X77.811 Y74.823 E0.08743
G1 X77.896 Y74.773 E0.09071
G1 X78.076 Y74.638 E0.09819
G1 X79.203 Y74.037 E0.14067
G1 X79.981 Y73.668 E0.16931
G1 X81.092 Y73.269 E0.20857
G1 X82.342 Y72.942 E0.25155
G1 X82.987 Y72.846 E0.27324
G1 X83.626 Y72.749 E0.29473
G1 X84.328 Y72.715 E0.31811
G1 X85.002 Y72.690 E0.34054
G1 X85.533 Y72.720 E0.35823
G1 X86.145 Y72.748 E0.37861
G1 X86.727 Y72.835 E0.39818
G1 X87.421 Y72.936 E0.42151
G1 X88.026 Y73.093 E0.44229
G1 X88.587 Y73.231 E0.46151
G1 X89.399 Y73.520 E0.49018
G1 X90.426 Y73.943 E0.52712
G1 X91.892 Y74.754 E0.58284
G1 X92.484 Y75.197 E0.60743
G1 X93.003 Y75.579 E0.62887
G1 X93.137 Y75.700 E0.63487
G1 X121.859 Y75.700 E1.59017
G1 X121.967 Y75.602 E1.59502
G1 X122.980 Y74.851 E1.63696
G1 X123.727 Y74.402 E1.66595
G1 X124.412 Y74.037 E1.69177
G1 X125.194 Y73.666 E1.72055
G1 X126.081 Y73.348 E1.75190
G1 X127.439 Y72.958 E1.79889
G1 X128.232 Y72.841 E1.82555
G1 X128.823 Y72.754 E1.84542
G1 X129.486 Y72.717 E1.86750
G1 X130.153 Y72.690 E1.88971
G1 X130.730 Y72.719 E1.90892
G1 X131.352 Y72.748 E1.92963
G1 X131.944 Y72.836 E1.94954
G1 X132.624 Y72.936 E1.97240
G1 X133.443 Y73.146 E2.00052
G1 X134.399 Y73.430 E2.03369
G1 X135.570 Y73.919 E2.07590
G1 X136.471 Y74.396 E2.10980
G1 X137.253 Y74.868 E2.14018
G1 X137.692 Y75.197 E2.15843
G1 X138.207 Y75.572 E2.17962
G1 X139.168 Y76.445 E2.22280
G1 X139.738 Y77.075 E2.25106
G1 X140.216 Y77.654 E2.27603
G1 X140.750 Y78.373 E2.30582
G1 X141.036 Y78.849 E2.32429
G1 X141.478 Y79.576 E2.35259
G1 X142.020 Y80.831 E2.39806
G1 X142.360 Y81.751 E2.43068
G1 X142.525 Y82.422 E2.45366
G1 X142.670 Y83.012 E2.47387
G1 X142.759 Y83.606 E2.49384
G1 X142.849 Y84.222 E2.51455
G1 X142.887 Y84.901 E2.53717
G1 X142.913 Y85.610 E2.56077
G1 X142.885 Y86.115 E2.57759
G1 X142.853 Y86.778 E2.59967
G1 X142.726 Y87.618 E2.62792
G1 X142.577 Y88.372 E2.65349
G1 X142.365 Y89.214 E2.68236
G1 X142.149 Y89.821 E2.70379
G1 X141.934 Y90.412 E2.72471
G1 X141.583 Y91.160 E2.75219
G1 X141.103 Y92.065 E2.78626
G1 X140.537 Y92.913 E2.82017
G1 X140.004 Y93.634 E2.85000
G1 X139.904 Y93.743 E2.85492
G1 X139.904 Y121.255 E3.76997
G1 X140.112 Y121.484 E3.78026
G1 X140.891 Y122.612 E3.82585
G1 X141.403 Y123.451 E3.85854
G1 X141.697 Y124.082 E3.88170
G1 X141.939 Y124.595 E3.90056
G1 X142.134 Y125.138 E3.91975
G1 X142.370 Y125.786 E3.94269
G1 X142.517 Y126.390 E3.96337
G1 X142.663 Y126.978 E3.98352
G1 X142.759 Y127.595 E4.00428
G1 X142.855 Y128.253 E4.02640
G1 X142.888 Y128.932 E4.04901
G1 X142.911 Y129.569 E4.07021
G1 X142.885 Y130.131 E4.08892
G1 X142.853 Y130.742 E4.10927
G1 X142.764 Y131.366 E4.13024
G1 X142.663 Y132.028 E4.15251
G1 X142.514 Y132.617 E4.17272
G1 X142.373 Y133.192 E4.19241
G1 X142.080 Y134.014 E4.22143
G1 X141.689 Y134.963 E4.25557
G1 X141.196 Y135.886 E4.29038
G1 X140.746 Y136.631 E4.31932
G1 X140.369 Y137.140 E4.34039
G1 X140.018 Y137.615 E4.36004
G1 X139.381 Y138.319 E4.39161
G1 X138.387 Y139.284 E4.43769
G1 X137.267 Y140.120 E4.48418
G1 X136.202 Y140.766 E4.52560
G1 X135.056 Y141.315 E4.56787
G1 X133.874 Y141.742 E4.60967
G1 X132.646 Y142.057 E4.65183
G1 X131.319 Y142.254 E4.69645
G1 X130.028 Y142.311 E4.73944
G1 X128.779 Y142.243 E4.78104
G1 X127.624 Y142.066 E4.81990
G1 X126.414 Y141.770 E4.86133
G1 X125.134 Y141.309 E4.90658
G1 X124.012 Y140.767 E4.94803
G1 X123.019 Y140.172 E4.98653
G1 X122.020 Y139.438 E5.02776
G1 X121.867 Y139.300 E5.03461
G1 X93.157 Y139.300 E5.98951
G1 X92.055 Y140.122 E6.03524
G1 X90.961 Y140.785 E6.07779
G1 X89.833 Y141.320 E6.11931
G1 X88.630 Y141.756 E6.16187
G1 X87.433 Y142.055 E6.20290
G1 X86.155 Y142.252 E6.24591
G1 X84.823 Y142.311 E6.29026
G1 X83.570 Y142.243 E6.33200
G1 X82.406 Y142.065 E6.37116
G1 X81.163 Y141.758 E6.41374
G1 X79.914 Y141.303 E6.45796
G1 X78.801 Y140.767 E6.49904
G1 X77.803 Y140.166 E6.53779
G1 X76.812 Y139.438 E6.57869
G1 X76.110 Y138.807 E6.61009
G1 X75.723 Y138.435 E6.62794
G1 X74.992 Y137.628 E6.66416
G1 X74.261 Y136.644 E6.70493
G1 X73.605 Y135.557 E6.74715
G1 X73.017 Y134.314 E6.79289
G1 X72.570 Y132.969 E6.84003
G1 X72.333 Y132.009 E6.87292
G1 X72.137 Y130.709 E6.91664
G1 X72.095 Y129.472 E6.95781
G1 X72.095 Y85.349 E8.42535
G1 X72.138 Y84.315 E8.45977
G1 X72.318 Y83.064 E8.50180
G1 X72.634 Y81.770 E8.54611
G1 X73.081 Y80.552 E8.58926
G1 X73.574 Y79.504 E8.62778
G1 X74.215 Y78.422 E8.66961
G1 X74.958 Y77.416 E8.71121
G1 X75.785 Y76.492 E8.75245
G0 F9000 X76.070 Y76.774
G1 F1800 X77.007 Y75.914 E8.79475
G1 X78.033 Y75.157 E8.83716
G1 X78.112 Y75.110 E8.84022
G1 X78.291 Y74.976 E8.84765
G1 X79.383 Y74.394 E8.88881
G1 X80.135 Y74.037 E8.91650
G1 X81.211 Y73.651 E8.95452
G1 X82.422 Y73.335 E8.99615
G1 X83.046 Y73.241 E9.01713
G1 X83.666 Y73.148 E9.03799
G1 X84.345 Y73.114 E9.06060
G1 X84.998 Y73.091 E9.08233
G1 X85.487 Y73.117 E9.09862
G1 X86.106 Y73.147 E9.11923
G1 X86.707 Y73.236 E9.13944
G1 X86.707 Y73.237 E9.13947
G1 X87.341 Y73.329 E9.16078
G1 X87.927 Y73.480 E9.18091
G1 X88.472 Y73.615 E9.19958
G1 X89.255 Y73.893 E9.22722
G1 X90.252 Y74.304 E9.26308
G1 X91.674 Y75.090 E9.31712
G1 X92.307 Y75.563 E9.34341
G1 X92.750 Y75.889 E9.36170
G1 X92.983 Y76.100 E9.37215
G1 X122.015 Y76.100 E10.33776
G1 X122.222 Y75.911 E10.34709
G1 X123.202 Y75.184 E10.38767
G1 X123.924 Y74.750 E10.41569
G1 X124.592 Y74.394 E10.44086
G1 X125.348 Y74.036 E10.46869
G1 X126.204 Y73.729 E10.49893
G1 X127.523 Y73.350 E10.54458
G1 X128.290 Y73.236 E10.57037
G1 X128.864 Y73.152 E10.58966
G1 X129.505 Y73.116 E10.61102
G1 X130.151 Y73.091 E10.63252
G1 X130.710 Y73.118 E10.65113
G1 X131.313 Y73.146 E10.67121
G1 X131.916 Y73.236 E10.69149
G1 X132.545 Y73.329 E10.71264
G1 X133.336 Y73.532 E10.73980
G1 X134.265 Y73.807 E10.77202
G1 X135.399 Y74.281 E10.81290
G1 X136.274 Y74.744 E10.84583
G1 X137.029 Y75.200 E10.87516
G1 X137.496 Y75.549 E10.89455
G1 X137.954 Y75.883 E10.91341
G1 X138.884 Y76.728 E10.95520
G1 X139.436 Y77.337 E10.98254
G1 X139.901 Y77.901 E11.00685
G1 X140.418 Y78.596 E11.03566
G1 X140.694 Y79.057 E11.05353
G1 X140.695 Y79.057 E11.05356
G1 X141.122 Y79.760 E11.08092
G1 X141.648 Y80.980 E11.12511
G1 X141.977 Y81.868 E11.15661
G1 X142.137 Y82.518 E11.17887
G1 X142.278 Y83.089 E11.19843
G1 X142.364 Y83.665 E11.21780
G1 X142.451 Y84.262 E11.23787
G1 X142.488 Y84.919 E11.25976
G1 X142.512 Y85.606 E11.28262
G1 X142.482 Y86.160 E11.30107
G1 X142.454 Y86.738 E11.32032
G1 X142.332 Y87.549 E11.34760
G1 X142.186 Y88.284 E11.37252
G1 X141.982 Y89.098 E11.40043
G1 X141.773 Y89.686 E11.42119
G1 X141.564 Y90.258 E11.44144
G1 X141.225 Y90.981 E11.46800
G1 X140.759 Y91.859 E11.50106
G1 X140.210 Y92.683 E11.53399
G1 X139.694 Y93.380 E11.56284
G1 X139.504 Y93.588 E11.57221
G1 X139.504 Y121.411 E12.49760
G1 X139.798 Y121.734 E12.51213
G1 X140.555 Y122.830 E12.55643
G1 X141.050 Y123.640 E12.58801
G1 X141.316 Y124.213 E12.60902
G1 X141.569 Y124.749 E12.62873
G1 X141.768 Y125.301 E12.64825
G1 X141.986 Y125.902 E12.66951
G1 X142.128 Y126.486 E12.68950
G1 X142.129 Y126.486 E12.68954
G1 X142.271 Y127.057 E12.70911
G1 X142.363 Y127.654 E12.72920
G1 X142.457 Y128.292 E12.75065
G1 X142.489 Y128.949 E12.77252
G1 X142.511 Y129.567 E12.79309
G1 X142.485 Y130.111 E12.81120
G1 X142.454 Y130.703 E12.83092
G1 X142.368 Y131.307 E12.85121
G1 X142.270 Y131.949 E12.87281
G1 X142.137 Y132.474 E12.89083
G1 X142.138 Y132.474 E12.89086
G1 X141.989 Y133.076 E12.91149
G1 X141.707 Y133.871 E12.93954
G1 X141.327 Y134.793 E12.97271
G1 X140.849 Y135.688 E13.00646
G1 X140.413 Y136.408 E13.03445
G1 X140.060 Y136.883 E13.05414
G1 X140.061 Y136.884 E13.05419
G1 X139.708 Y137.362 E13.07395
G1 X139.093 Y138.041 E13.10442
G1 X138.127 Y138.979 E13.14920
G1 X137.043 Y139.788 E13.19419
G1 X136.011 Y140.414 E13.23434
G1 X134.901 Y140.946 E13.27528
G1 X133.756 Y141.359 E13.31576
G1 X132.567 Y141.664 E13.35659
G1 X131.281 Y141.856 E13.39983
G1 X130.031 Y141.910 E13.44145
G1 X128.820 Y141.844 E13.48179
G1 X127.702 Y141.673 E13.51940
G1 X126.530 Y141.386 E13.55954
G1 X125.289 Y140.940 E13.60340
G1 X124.202 Y140.415 E13.64355
G1 X123.241 Y139.839 E13.68081
G1 X122.273 Y139.128 E13.72076
G1 X122.020 Y138.900 E13.73209
G1 X92.999 Y138.900 E14.69733
G1 X92.918 Y138.979 E14.70109
G1 X91.831 Y139.790 E14.74620
G1 X90.771 Y140.433 E14.78743
G1 X89.678 Y140.951 E14.82766
G1 X88.513 Y141.373 E14.86888
G1 X87.354 Y141.662 E14.90860
G1 X86.116 Y141.853 E14.95027
G1 X84.826 Y141.910 E14.99321
G1 X83.611 Y141.844 E15.03369
G1 X82.484 Y141.672 E15.07160
G1 X81.279 Y141.375 E15.11288
G1 X80.070 Y140.934 E15.15568
G1 X78.991 Y140.414 E15.19552
G1 X78.025 Y139.833 E15.23302
G1 X77.065 Y139.128 E15.27263
G1 X76.382 Y138.514 E15.30318
G1 X76.010 Y138.156 E15.32035
G1 X75.301 Y137.374 E15.35546
G1 X74.594 Y136.421 E15.39492
G1 X73.958 Y135.368 E15.43584
G1 X73.389 Y134.165 E15.48010
G1 X72.955 Y132.857 E15.52594
G1 X72.726 Y131.931 E15.55766
G1 X72.536 Y130.673 E15.59998
G1 X72.495 Y129.465 E15.64018
G1 X72.495 Y85.357 E17.10722
G1 X72.537 Y84.352 E17.14067
G1 X72.711 Y83.140 E17.18140
G1 X73.018 Y81.886 E17.22434
G1 X73.451 Y80.706 E17.26615
G1 X73.928 Y79.691 E17.30345
G1 X74.549 Y78.643 E17.34396
G1 X75.269 Y77.669 E17.38425
G1 X76.070 Y76.774 E17.42420
G0 F9000 X76.354 Y77.055
G1 F1800 X77.262 Y76.223 E17.46516
G1 X78.254 Y75.491 E17.50616
G1 X78.335 Y75.443 E17.50929
G1 X78.506 Y75.315 E17.51640
G1 X79.563 Y74.752 E17.55623
G1 X80.289 Y74.407 E17.58296
G1 X81.329 Y74.034 E17.61971
G1 X82.503 Y73.727 E17.66007
G1 X83.105 Y73.637 E17.68032
G1 X83.105 Y73.638 E17.68035
G1 X83.706 Y73.546 E17.70057
G1 X84.362 Y73.514 E17.72242
G1 X84.994 Y73.491 E17.74345
G1 X85.530 Y73.520 E17.76131
G1 X86.067 Y73.545 E17.77919
G1 X86.648 Y73.632 E17.79873
G1 X87.262 Y73.721 E17.81936
G1 X87.862 Y73.876 E17.83997
G1 X88.357 Y73.998 E17.85693
G1 X89.112 Y74.267 E17.88359
G1 X90.079 Y74.665 E17.91837
G1 X91.457 Y75.427 E17.97074
G1 X92.059 Y75.877 E17.99574
G1 X92.497 Y76.199 E18.01382
G1 X92.830 Y76.500 E18.02875
G1 X122.169 Y76.500 E19.00457
G1 X122.476 Y76.221 E19.01837
G1 X123.425 Y75.517 E19.05767
G1 X124.121 Y75.098 E19.08469
G1 X124.772 Y74.752 E19.10921
G1 X125.501 Y74.406 E19.13605
G1 X126.327 Y74.110 E19.16523
G1 X127.608 Y73.742 E19.20956
G1 X128.349 Y73.632 E19.23447
G1 X128.904 Y73.551 E19.25313
G1 X129.524 Y73.516 E19.27378
G1 X130.149 Y73.491 E19.29459
G1 X130.690 Y73.518 E19.31260
G1 X131.274 Y73.545 E19.33205
G1 X131.857 Y73.632 E19.35165
G1 X132.466 Y73.721 E19.37212
G1 X133.229 Y73.917 E19.39833
G1 X134.131 Y74.185 E19.42962
G1 X135.228 Y74.643 E19.46916
G1 X136.077 Y75.092 E19.50111
G1 X136.806 Y75.532 E19.52943
G1 X137.258 Y75.870 E19.54820
G1 X137.701 Y76.193 E19.56643
G1 X138.601 Y77.011 E19.60688
G1 X139.133 Y77.598 E19.63323
G1 X139.586 Y78.148 E19.65693
G1 X140.085 Y78.818 E19.68472
G1 X140.352 Y79.265 E19.70204
G1 X140.353 Y79.265 E19.70207
G1 X140.766 Y79.944 E19.72850
G1 X141.277 Y81.128 E19.77139
G1 X141.594 Y81.986 E19.80182
G1 X141.749 Y82.615 E19.82336
G1 X141.885 Y83.167 E19.84227
G1 X141.968 Y83.724 E19.86100
G1 X142.053 Y84.302 E19.88043
G1 X142.088 Y84.938 E19.90162
G1 X142.112 Y85.602 E19.92372
G1 X142.085 Y86.076 E19.93951
G1 X142.086 Y86.076 E19.93954
G1 X142.056 Y86.699 E19.96029
G1 X141.938 Y87.480 E19.98656
G1 X141.796 Y88.196 E20.01083
G1 X141.598 Y88.982 E20.03779
G1 X141.396 Y89.550 E20.05784
G1 X141.195 Y90.104 E20.07745
G1 X140.867 Y90.802 E20.10310
G1 X140.415 Y91.654 E20.13518
G1 X139.883 Y92.452 E20.16707
G1 X139.385 Y93.125 E20.19492
G1 X139.104 Y93.433 E20.20879
G1 X139.104 Y121.566 E21.14450
G1 X139.484 Y121.983 E21.16326
G1 X140.220 Y123.048 E21.20632
G1 X140.697 Y123.829 E21.23675
G1 X140.954 Y124.383 E21.25707
G1 X141.199 Y124.902 E21.27616
G1 X141.382 Y125.411 E21.29415
G1 X141.603 Y126.018 E21.31563
G1 X141.750 Y126.620 E21.33624
G1 X141.749 Y126.620 E21.33628
G1 X141.878 Y127.136 E21.35397
G1 X141.967 Y127.714 E21.37342
G1 X142.058 Y128.331 E21.39416
G1 X142.089 Y128.966 E21.41531
G1 X142.111 Y129.565 E21.43524
G1 X142.086 Y130.091 E21.45276
G1 X142.056 Y130.664 E21.47184
G1 X141.973 Y131.249 E21.49149
G1 X141.878 Y131.870 E21.51239
G1 X141.739 Y132.422 E21.53132
G1 X141.738 Y132.422 E21.53135
G1 X141.606 Y132.961 E21.54981
G1 X141.333 Y133.728 E21.57689
G1 X140.965 Y134.622 E21.60904
G1 X140.501 Y135.490 E21.64178
G1 X140.081 Y136.185 E21.66879
G1 X139.726 Y136.663 E21.68859
G1 X139.398 Y137.108 E21.70698
G1 X138.805 Y137.763 E21.73637
G1 X137.867 Y138.674 E21.77986
G1 X136.819 Y139.456 E21.82335
G1 X135.821 Y140.062 E21.86218
G1 X134.747 Y140.577 E21.90180
G1 X133.639 Y140.977 E21.94098
G1 X132.488 Y141.271 E21.98049
G1 X131.242 Y141.457 E22.02239
G1 X130.033 Y141.510 E22.06264
G1 X128.861 Y141.446 E22.10168
G1 X127.779 Y141.280 E22.13809
G1 X126.645 Y141.003 E22.17691
G1 X125.445 Y140.570 E22.21934
G1 X124.392 Y140.062 E22.25823
G1 X123.462 Y139.505 E22.29429
G1 X122.525 Y138.817 E22.33295
G1 X122.172 Y138.500 E22.34873
G1 X92.837 Y138.500 E23.32442
G1 X92.658 Y138.674 E23.33272
G1 X91.607 Y139.458 E23.37633
G1 X90.581 Y140.080 E23.41624
G1 X89.524 Y140.581 E23.45514
G1 X88.396 Y140.989 E23.49504
G1 X87.275 Y141.270 E23.53347
G1 X86.076 Y141.455 E23.57383
G1 X84.828 Y141.510 E23.61537
G1 X83.652 Y141.446 E23.65455
G1 X82.562 Y141.279 E23.69122
G1 X81.396 Y140.992 E23.73116
G1 X80.226 Y140.565 E23.77259
G1 X79.181 Y140.062 E23.81116
G1 X78.247 Y139.500 E23.84742
G1 X77.317 Y138.817 E23.88579
G1 X76.655 Y138.221 E23.91542
G1 X76.297 Y137.877 E23.93193
G1 X75.611 Y137.120 E23.96591
G1 X74.926 Y136.197 E24.00414
G1 X74.311 Y135.179 E24.04370
G1 X73.761 Y134.016 E24.08649
G1 X73.339 Y132.746 E24.13100
G1 X73.119 Y131.853 E24.16159
G1 X72.935 Y130.636 E24.20253
G1 X72.895 Y129.458 E24.24173
G1 X72.895 Y85.365 E25.70827
G1 X72.936 Y84.389 E25.74076
G1 X73.105 Y83.216 E25.78018
G1 X73.401 Y82.003 E25.82170
G1 X73.820 Y80.861 E25.86216
G1 X74.281 Y79.879 E25.89824
G1 X74.883 Y78.864 E25.93749
G1 X75.579 Y77.921 E25.97648
G1 X76.354 Y77.055 E26.01513
G0 F9000 X76.639 Y77.337
G1 F1800 X77.517 Y76.532 E26.05475
G1 X78.475 Y75.825 E26.09435
G1 X78.558 Y75.776 E26.09756
G1 X78.722 Y75.653 E26.10437
G1 X79.743 Y75.109 E26.14285
G1 X80.442 Y74.777 E26.16859
G1 X81.447 Y74.416 E26.20411
G1 X82.583 Y74.120 E26.24315
G1 X83.149 Y74.035 E26.26219
G1 X83.745 Y73.945 E26.28224
G1 X84.379 Y73.914 E26.30335
G1 X84.991 Y73.892 E26.32372
G1 X85.440 Y73.916 E26.33867
G1 X86.028 Y73.944 E26.35825
G1 X86.561 Y74.024 E26.37618
G1 X87.183 Y74.114 E26.39708
G1 X87.694 Y74.247 E26.41464
G1 X88.241 Y74.382 E26.43338
G1 X88.969 Y74.640 E26.45907
G1 X89.905 Y75.027 E26.49276
G1 X91.239 Y75.764 E26.54345
G1 X91.773 Y76.163 E26.56562
G1 X92.243 Y76.510 E26.58505
G1 X92.675 Y76.900 E26.60441
G1 X122.324 Y76.900 E27.59054
G1 X122.731 Y76.530 E27.60883
G1 X123.648 Y75.850 E27.64680
G1 X124.318 Y75.446 E27.67282
G1 X124.952 Y75.109 E27.69671
G1 X125.655 Y74.775 E27.72259
G1 X126.450 Y74.491 E27.75067
G1 X127.693 Y74.133 E27.79369
G1 X128.407 Y74.028 E27.81770
G1 X128.944 Y73.949 E27.83575
G1 X129.543 Y73.915 E27.85570
G1 X130.147 Y73.892 E27.87581
G1 X130.670 Y73.917 E27.89322
G1 X131.236 Y73.944 E27.91207
G1 X131.770 Y74.024 E27.93003
G1 X132.387 Y74.114 E27.95077
G1 X133.123 Y74.303 E27.97604
G1 X133.996 Y74.562 E28.00633
G1 X135.057 Y75.005 E28.04457
G1 X135.880 Y75.440 E28.07553
G1 X136.582 Y75.865 E28.10283
G1 X136.953 Y76.143 E28.11824
G1 X137.448 Y76.504 E28.13862
G1 X138.318 Y77.294 E28.17771
G1 X138.830 Y77.860 E28.20309
G1 X139.271 Y78.395 E28.22615
G1 X139.752 Y79.041 E28.25294
G1 X140.011 Y79.473 E28.26969
G1 X140.410 Y80.128 E28.29520
G1 X140.905 Y81.277 E28.33681
G1 X141.211 Y82.103 E28.36611
G1 X141.360 Y82.709 E28.38687
G1 X141.492 Y83.245 E28.40523
G1 X141.572 Y83.782 E28.42329
G1 X141.654 Y84.342 E28.44211
G1 X141.688 Y84.956 E28.46256
