;Generated with Cura_SteamEngine 15.01
G28 ; Home extruder
G1 Z15 F100
M107 ; Turn off fan
G90 ; Absolute positioning
M82 ; Extruder in absolute mode
M190 S50
; Activate all used extruder
M104 T0 S200
G92 E0 ; Reset extruder position
; Wait for all used extruders to reach temperature
M109 T0 S200
G28 ; Home extruder
;Layer count: 27
;LAYER:0
M107
G0 F9000 X29.454 Y77.899 Z0.200
;TYPE:SKIRT
G1 F1800 X184.045 Y77.899 E5.14172
G1 X184.045 Y80.399 E5.22487
G1 X185.545 Y80.399 E5.27476
G1 X185.545 Y134.600 E7.07749
G1 X184.045 Y134.600 E7.12738
G1 X184.045 Y137.100 E7.21053
G1 X53.004 Y137.100 E11.56897
G1 X51.551 Y136.966 E11.61750
G1 X49.765 Y136.488 E11.67900
G1 X48.052 Y135.697 E11.74175
G1 X46.473 Y134.593 E11.80583
G1 X45.150 Y133.258 E11.86835
G1 X45.043 Y133.106 E11.87453
G1 X40.113 Y133.100 E12.03850
G1 X29.454 Y133.100 E12.39302
G1 X29.454 Y77.899 E14.22902
G0 F9000 X29.854 Y78.299
G1 F1800 X183.645 Y78.299 E19.34412
G1 X183.645 Y80.799 E19.42727
G1 X185.145 Y80.799 E19.47717
G1 X185.145 Y134.200 E21.25329
G1 X183.645 Y134.200 E21.30318
G1 X183.645 Y136.700 E21.38633
G1 X53.023 Y136.700 E25.73084
G1 X51.622 Y136.571 E25.77763
G1 X49.901 Y136.110 E25.83689
G1 X48.252 Y135.349 E25.89729
G1 X46.732 Y134.285 E25.95900
G1 X45.458 Y133.001 E26.01916
G1 X45.251 Y132.707 E26.03112
G1 X40.114 Y132.700 E26.20198
G1 X29.854 Y132.700 E26.54323
G1 X29.854 Y78.299 E28.35261
G0 F9000 X30.254 Y78.699
G1 F1800 X183.245 Y78.699 E33.44112
G1 X183.245 Y81.199 E33.52427
G1 X184.745 Y81.199 E33.57416
G1 X184.745 Y133.800 E35.32367
G1 X183.245 Y133.800 E35.37356
G1 X183.245 Y136.300 E35.45671
G1 X53.041 Y136.300 E39.78732
G1 X51.692 Y136.176 E39.83237
G1 X50.038 Y135.733 E39.88932
G1 X48.452 Y135.000 E39.94744
G1 X46.991 Y133.978 E40.00674
G1 X45.765 Y132.743 E40.06462
G1 X45.458 Y132.307 E40.08235
G1 X40.114 Y132.300 E40.26010
G1 X30.254 Y132.300 E40.58804
G1 X30.254 Y78.699 E42.37082
G0 F9000 X30.654 Y79.099
G1 F1800 X182.845 Y79.099 E47.43271
G1 X182.845 Y81.599 E47.51586
G1 X184.345 Y81.599 E47.56575
G1 X184.345 Y133.400 E49.28866
G1 X182.845 Y133.400 E49.33855
G1 X182.845 Y135.900 E49.42170
G1 X53.059 Y135.900 E53.73840
G1 X51.763 Y135.781 E53.78169
G1 X50.174 Y135.355 E53.83640
G1 X48.652 Y134.652 E53.89216
G1 X47.249 Y133.671 E53.94910
G1 X46.073 Y132.485 E54.00465
G1 X45.666 Y131.907 E54.02817
G1 X40.115 Y131.900 E54.21279
G1 X30.654 Y131.900 E54.52747
G1 X30.654 Y79.099 E56.28364
G0 F9000 X31.054 Y79.499
G1 F1800 X182.445 Y79.499 E61.31892
G1 X182.445 Y81.999 E61.40207
G1 X183.945 Y81.999 E61.45196
G1 X183.945 Y133.000 E63.14826
G1 X182.445 Y133.000 E63.19815
G1 X182.445 Y135.500 E63.28130
G1 X53.078 Y135.500 E67.58407
G1 X51.833 Y135.386 E67.62565
G1 X50.311 Y134.978 E67.67806
G1 X48.853 Y134.304 E67.73148
G1 X47.508 Y133.364 E67.78606
G1 X46.381 Y132.227 E67.83931
G1 X45.874 Y131.508 E67.86857
G1 X40.115 Y131.500 E68.06011
G1 X31.054 Y131.500 E68.36148
G1 X31.054 Y79.499 E70.09104
G0 F9000 X31.454 Y79.899
G1 F1800 X182.045 Y79.899 E75.09972
G1 X182.045 Y82.399 E75.18287
G1 X183.545 Y82.399 E75.23276
G1 X183.545 Y132.600 E76.90245
G1 X182.045 Y132.600 E76.95234
G1 X182.045 Y135.100 E77.03549
G1 X53.096 Y135.100 E81.32435
G1 X51.904 Y134.990 E81.36417
G1 X50.448 Y134.600 E81.41430
G1 X49.053 Y133.956 E81.46541
G1 X47.767 Y133.057 E81.51759
G1 X46.688 Y131.969 E81.56856
G1 X46.081 Y131.108 E81.60360
G1 X40.116 Y131.100 E81.80199
G1 X31.454 Y131.100 E82.09009
G1 X31.454 Y79.899 E83.79305
G0 F9000 X31.854 Y80.299
G1 F1800 X181.645 Y80.299 E88.77511
G1 X181.645 Y82.799 E88.85826
G1 X183.145 Y82.799 E88.90815
G1 X183.145 Y132.200 E90.55124
G1 X181.645 Y132.200 E90.60113
G1 X181.645 Y134.700 E90.68428
G1 X53.114 Y134.700 E94.95924
G1 X51.974 Y134.595 E94.99731
G1 X50.584 Y134.223 E95.04517
G1 X49.253 Y133.608 E95.09394
G1 X48.025 Y132.749 E95.14378
G1 X46.996 Y131.712 E95.19237
G1 X46.290 Y130.708 E95.23320
G1 X40.116 Y130.700 E95.43854
G1 X31.854 Y130.700 E95.71334
G1 X31.854 Y80.299 E97.38968
G0 F9000 X32.254 Y80.699
G1 F1800 X181.245 Y80.699 E102.34514
G1 X181.245 Y83.199 E102.42829
G1 X182.745 Y83.199 E102.47819
G1 X182.745 Y131.800 E104.09466
G1 X181.245 Y131.800 E104.14455
G1 X181.245 Y134.300 E104.22770
G1 X53.133 Y134.300 E108.48872
G1 X52.045 Y134.200 E108.52506
G1 X50.721 Y133.845 E108.57066
G1 X49.453 Y133.259 E108.61712
G1 X48.284 Y132.442 E108.66455
G1 X47.304 Y131.454 E108.71084
G1 X46.510 Y130.327 E108.75669
G1 X46.501 Y130.308 E108.75739
G1 X40.117 Y130.300 E108.96972
G1 X32.254 Y130.300 E109.23124
G1 X32.254 Y80.699 E110.88098
G0 F9000 X32.654 Y81.099
G1 F1800 X180.845 Y81.099 E115.80983
G1 X180.845 Y83.599 E115.89298
G1 X182.345 Y83.599 E115.94287
G1 X182.345 Y131.400 E117.53274
G1 X180.845 Y131.400 E117.58263
G1 X180.845 Y133.900 E117.66578
G1 X53.151 Y133.900 E121.91290
G1 X52.116 Y133.805 E121.94747
G1 X50.858 Y133.468 E121.99079
G1 X49.653 Y132.911 E122.03494
G1 X48.543 Y132.135 E122.07999
G1 X47.611 Y131.196 E122.12399
G1 X46.857 Y130.125 E122.16755
G1 X46.756 Y129.909 E122.17548
G1 X40.117 Y129.900 E122.39630
G1 X32.654 Y129.900 E122.64452
G1 X32.654 Y81.099 E124.26765
G0 F9000 X33.054 Y81.499
G1 F1800 X180.445 Y81.499 E129.16989
G1 X180.445 Y83.999 E129.25304
G1 X181.945 Y83.999 E129.30293
G1 X181.945 Y131.000 E130.86619
G1 X180.445 Y131.000 E130.91608
G1 X180.445 Y133.500 E130.99923
G1 X53.170 Y133.500 E135.23242
G1 X52.186 Y133.410 E135.26528
G1 X50.994 Y133.090 E135.30633
G1 X49.853 Y132.563 E135.34813
G1 X48.801 Y131.828 E135.39082
G1 X47.919 Y130.938 E135.43249
G1 X47.205 Y129.924 E135.47374
G1 X47.011 Y129.509 E135.48898
G1 X40.118 Y129.500 E135.71824
G1 X33.054 Y129.500 E135.95319
G1 X33.054 Y81.499 E137.54971
G0 F9000 X33.454 Y81.899
G1 F1800 X77.619 Y81.899 E139.01864
G1 X77.657 Y81.934 E139.02036
G1 X77.695 Y81.899 E139.02208
G1 X180.045 Y81.899 E142.42625
G1 X180.045 Y84.399 E142.50940
G1 X181.545 Y84.399 E142.55929
G1 X181.545 Y130.600 E144.09594
G1 X180.045 Y130.600 E144.14584
G1 X180.045 Y133.100 E144.22899
G1 X77.695 Y133.100 E147.63316
G1 X77.657 Y133.065 E147.63488
G1 X77.619 Y133.100 E147.63660
G1 X53.188 Y133.100 E148.44918
G1 X52.257 Y133.014 E148.48027
G1 X51.131 Y132.713 E148.51904
G1 X50.053 Y132.215 E148.55853
G1 X49.060 Y131.521 E148.59883
G1 X48.227 Y130.680 E148.63820
G1 X47.552 Y129.722 E148.67718
G1 X47.265 Y129.109 E148.69969
G1 X40.118 Y129.100 E148.93740
G1 X33.454 Y129.100 E149.15904
G1 X33.454 Y81.899 E150.72896
G0 F9000 X33.854 Y82.299
G1 F1800 X77.461 Y82.299 E152.17933
G1 X77.656 Y82.481 E152.18820
G1 X77.852 Y82.299 E152.19710
G1 X179.645 Y82.299 E155.58275
G1 X179.645 Y84.799 E155.66590
G1 X181.145 Y84.799 E155.71579
G1 X181.145 Y130.200 E157.22583
G1 X179.645 Y130.200 E157.27572
G1 X179.645 Y132.700 E157.35887
G1 X77.852 Y132.700 E160.74452
G1 X77.656 Y132.518 E160.75342
G1 X77.461 Y132.700 E160.76229
G1 X53.206 Y132.700 E161.56901
G1 X52.327 Y132.619 E161.59837
G1 X51.268 Y132.335 E161.63484
G1 X50.253 Y131.867 E161.67201
G1 X49.319 Y131.213 E161.70994
G1 X48.534 Y130.422 E161.74700
G1 X47.899 Y129.521 E161.78367
G1 X47.519 Y128.710 E161.81345
G1 X40.119 Y128.700 E162.05958
G1 X33.854 Y128.700 E162.26795
G1 X33.854 Y82.299 E163.81126
G0 F9000 X34.254 Y82.699
G1 F1800 X77.303 Y82.699 E165.24307
G1 X77.656 Y83.029 E165.25914
G1 X78.010 Y82.699 E165.27524
G1 X179.245 Y82.699 E168.64233
G1 X179.245 Y85.199 E168.72548
G1 X180.745 Y85.199 E168.77537
G1 X180.745 Y129.800 E170.25881
G1 X179.245 Y129.800 E170.30870
G1 X179.245 Y132.300 E170.39185
G1 X78.010 Y132.300 E173.75894
G1 X77.656 Y131.970 E173.77503
G1 X77.303 Y132.300 E173.79111
G1 X53.225 Y132.300 E174.59194
G1 X52.398 Y132.224 E174.61957
G1 X51.404 Y131.958 E174.65379
G1 X50.453 Y131.518 E174.68864
G1 X49.578 Y130.906 E174.72416
G1 X48.842 Y130.165 E174.75889
G1 X48.247 Y129.319 E174.79329
G1 X47.797 Y128.359 E174.82856
G1 X47.784 Y128.310 E174.83024
G1 X40.119 Y128.300 E175.08518
G1 X34.254 Y128.300 E175.28025
G1 X34.254 Y82.699 E176.79695
G0 F9000 X34.654 Y83.099
G1 F1800 X77.145 Y83.099 E178.21020
G1 X77.655 Y83.576 E178.23343
G1 X78.167 Y83.099 E178.25670
G1 X178.845 Y83.099 E181.60527
G1 X178.845 Y85.599 E181.68842
G1 X180.345 Y85.599 E181.73831
G1 X180.345 Y129.400 E183.19514
G1 X178.845 Y129.400 E183.24503
G1 X178.845 Y131.900 E183.32818
G1 X78.167 Y131.900 E186.67674
G1 X77.655 Y131.423 E186.70002
G1 X77.145 Y131.900 E186.72324
G1 X53.243 Y131.900 E187.51822
G1 X52.468 Y131.829 E187.54411
G1 X51.541 Y131.580 E187.57603
G1 X50.653 Y131.170 E187.60857
G1 X49.836 Y130.599 E187.64172
G1 X49.150 Y129.907 E187.67413
G1 X48.594 Y129.118 E187.70623
G1 X48.174 Y128.222 E187.73914
G1 X48.091 Y127.910 E187.74988
G1 X40.120 Y127.900 E188.01500
G1 X34.654 Y127.900 E188.19680
G1 X34.654 Y83.099 E189.68688
G0 F9000 X35.054 Y83.499
G1 F1800 X76.988 Y83.499 E191.08162
G1 X77.655 Y84.123 E191.11199
G1 X78.325 Y83.499 E191.14245
G1 X178.445 Y83.499 E194.47245
G1 X178.445 Y85.999 E194.55560
G1 X179.945 Y85.999 E194.60549
G1 X179.945 Y129.000 E196.03571
G1 X178.445 Y129.000 E196.08560
G1 X178.445 Y131.500 E196.16875
G1 X78.325 Y131.500 E199.49876
G1 X77.655 Y130.876 E199.52921
G1 X76.988 Y131.500 E199.55959
G1 X53.261 Y131.500 E200.34875
G1 X52.539 Y131.434 E200.37286
G1 X51.677 Y131.203 E200.40255
G1 X50.853 Y130.822 E200.43274
G1 X50.095 Y130.292 E200.46350
G1 X49.457 Y129.649 E200.49363
G1 X48.941 Y128.916 E200.52345
G1 X48.552 Y128.084 E200.55399
G1 X48.399 Y127.511 E200.57372
G1 X40.121 Y127.500 E200.84905
G1 X35.054 Y127.500 E201.01758
G1 X35.054 Y83.499 E202.48105
G0 F9000 X35.454 Y83.899
G1 F1800 X76.830 Y83.899 E203.85723
G1 X77.655 Y84.670 E203.89478
G1 X78.482 Y83.899 E203.93239
G1 X178.045 Y83.899 E207.24387
G1 X178.045 Y86.399 E207.32702
G1 X179.545 Y86.399 E207.37691
G1 X179.545 Y128.600 E208.78052
G1 X178.045 Y128.600 E208.83041
G1 X178.045 Y131.100 E208.91356
G1 X78.482 Y131.100 E212.22504
G1 X77.655 Y130.329 E212.26264
G1 X76.830 Y131.100 E212.30020
G1 X53.280 Y131.100 E213.08348
G1 X52.610 Y131.038 E213.10586
G1 X51.814 Y130.825 E213.13326
G1 X51.053 Y130.474 E213.16114
G1 X50.354 Y129.984 E213.18953
G1 X49.765 Y129.391 E213.21733
G1 X49.289 Y128.715 E213.24483
G1 X48.929 Y127.947 E213.27304
G1 X48.707 Y127.111 E213.30181
G1 X40.121 Y127.100 E213.58738
G1 X35.454 Y127.100 E213.74260
G1 X35.454 Y83.899 E215.17947
G0 F9000 X35.854 Y84.299
G1 F1800 X76.672 Y84.299 E216.53709
G1 X77.654 Y85.217 E216.58180
G1 X78.640 Y84.299 E216.62660
G1 X177.645 Y84.299 E219.91952
G1 X177.645 Y86.799 E220.00267
G1 X179.145 Y86.799 E220.05256
G1 X179.145 Y128.200 E221.42957
G1 X177.645 Y128.200 E221.47946
G1 X177.645 Y130.700 E221.56261
G1 X78.640 Y130.700 E224.85553
G1 X77.654 Y129.782 E224.90034
G1 X76.672 Y130.700 E224.94505
G1 X53.298 Y130.700 E225.72247
G1 X52.680 Y130.643 E225.74311
G1 X51.951 Y130.448 E225.76821
G1 X51.253 Y130.126 E225.79378
G1 X50.612 Y129.677 E225.81981
G1 X50.073 Y129.133 E225.84528
G1 X49.636 Y128.513 E225.87051
G1 X49.306 Y127.810 E225.89634
G1 X49.072 Y126.930 E225.92662
G1 X49.070 Y126.712 E225.93387
G1 X40.122 Y126.700 E226.23148
G1 X35.854 Y126.700 E226.37344
G1 X35.854 Y84.299 E227.78370
G0 F9000 X36.254 Y84.699
G1 F1800 X76.514 Y84.699 E229.12275
G1 X77.527 Y85.647 E229.16890
G1 X77.551 Y85.664 E229.16988
G1 X77.570 Y85.674 E229.17059
G1 X77.600 Y85.686 E229.17167
G1 X77.618 Y85.690 E229.17228
G1 X77.638 Y85.693 E229.17295
G1 X77.668 Y85.693 E229.17395
G1 X77.685 Y85.691 E229.17452
G1 X77.714 Y85.683 E229.17552
G1 X77.738 Y85.674 E229.17637
G1 X77.760 Y85.662 E229.17721
G1 X77.775 Y85.651 E229.17783
G1 X78.797 Y84.699 E229.22428
G1 X177.245 Y84.699 E232.49867
G1 X177.245 Y87.199 E232.58182
G1 X178.745 Y87.199 E232.63171
G1 X178.745 Y127.800 E233.98211
G1 X177.245 Y127.800 E234.03200
G1 X177.245 Y130.300 E234.11515
G1 X78.797 Y130.300 E237.38954
G1 X77.775 Y129.348 E237.43600
G1 X77.760 Y129.337 E237.43662
G1 X77.738 Y129.325 E237.43745
G1 X77.714 Y129.316 E237.43830
G1 X77.685 Y129.308 E237.43930
G1 X77.668 Y129.306 E237.43987
G1 X77.638 Y129.306 E237.44087
G1 X77.618 Y129.309 E237.44154
G1 X77.600 Y129.313 E237.44216
G1 X77.570 Y129.325 E237.44323
G1 X77.551 Y129.335 E237.44394
G1 X77.527 Y129.352 E237.44492
G1 X76.514 Y130.300 E237.49107
G1 X53.316 Y130.300 E238.26264
G1 X52.751 Y130.248 E238.28151
G1 X52.087 Y130.070 E238.30437
G1 X51.453 Y129.777 E238.32760
G1 X50.871 Y129.370 E238.35122
G1 X50.380 Y128.876 E238.37439
G1 X49.983 Y128.311 E238.39736
G1 X49.684 Y127.672 E238.42082
G1 X49.472 Y126.876 E238.44822
G1 X49.468 Y126.312 E238.46698
G1 X40.122 Y126.300 E238.77783
G1 X36.254 Y126.300 E238.90648
G1 X36.254 Y84.699 E240.29013
G0 F9000 X36.654 Y85.099
G1 F1800 X76.356 Y85.099 E241.61063
G1 X77.277 Y85.960 E241.65256
G1 X77.334 Y86.001 E241.65490
G1 X77.403 Y86.039 E241.65752
G1 X77.468 Y86.064 E241.65983
G1 X77.541 Y86.083 E241.66234
G1 X77.620 Y86.093 E241.66499
G1 X77.686 Y86.093 E241.66718
G1 X77.770 Y86.082 E241.67000
G1 X77.839 Y86.065 E241.67237
G1 X77.905 Y86.039 E241.67473
G1 X77.971 Y86.003 E241.67723
G1 X78.034 Y85.957 E241.67982
G1 X78.954 Y85.099 E241.72166
G1 X176.845 Y85.099 E244.97753
G1 X176.845 Y87.599 E245.06068
G1 X178.345 Y87.599 E245.11057
G1 X178.345 Y127.400 E246.43436
G1 X176.845 Y127.400 E246.48425
G1 X176.845 Y129.900 E246.56740
G1 X78.954 Y129.900 E249.82327
G1 X78.034 Y129.042 E249.86511
G1 X77.971 Y128.996 E249.86770
G1 X77.905 Y128.960 E249.87020
G1 X77.839 Y128.934 E249.87256
G1 X77.770 Y128.917 E249.87492
G1 X77.686 Y128.906 E249.87774
G1 X77.620 Y128.906 E249.87994
G1 X77.541 Y128.916 E249.88259
G1 X77.468 Y128.935 E249.88509
G1 X77.403 Y128.960 E249.88741
G1 X77.334 Y128.998 E249.89003
G1 X77.277 Y129.039 E249.89237
G1 X76.356 Y129.900 E249.93430
G1 X53.335 Y129.900 E250.69998
G1 X52.821 Y129.853 E250.71715
G1 X52.224 Y129.693 E250.73771
G1 X51.654 Y129.429 E250.75860
G1 X51.130 Y129.063 E250.77986
G1 X50.688 Y128.618 E250.80072
G1 X50.330 Y128.110 E250.82139
G1 X50.061 Y127.535 E250.84250
G1 X49.872 Y126.823 E250.86700
G1 X49.865 Y125.913 E250.89727
G1 X40.123 Y125.900 E251.22129
G1 X36.654 Y125.900 E251.33667
G1 X36.654 Y85.099 E252.69372
G0 F9000 X37.054 Y85.499
G1 F1800 X76.198 Y85.499 E253.99565
G1 X77.023 Y86.270 E254.03321
G1 X77.118 Y86.339 E254.03711
G1 X77.230 Y86.400 E254.04136
G1 X77.351 Y86.448 E254.04569
G1 X77.463 Y86.477 E254.04953
G1 X77.594 Y86.493 E254.05392
G1 X77.713 Y86.493 E254.05788
G1 X77.839 Y86.477 E254.06211
G1 X77.963 Y86.446 E254.06636
G1 X78.078 Y86.400 E254.07048
G1 X78.188 Y86.340 E254.07464
G1 X78.280 Y86.273 E254.07843
G1 X79.112 Y85.499 E254.11623
G1 X176.445 Y85.499 E257.35353
G1 X176.445 Y87.999 E257.43668
G1 X177.945 Y87.999 E257.48657
G1 X177.945 Y127.000 E258.78375
G1 X176.445 Y127.000 E258.83364
G1 X176.445 Y129.500 E258.91679
G1 X79.112 Y129.500 E262.15410
G1 X78.277 Y128.723 E262.19204
G1 X78.188 Y128.659 E262.19568
G1 X78.078 Y128.599 E262.19985
G1 X77.963 Y128.553 E262.20397
G1 X77.839 Y128.522 E262.20822
G1 X77.713 Y128.506 E262.21245
G1 X77.594 Y128.506 E262.21641
G1 X77.463 Y128.522 E262.22079
G1 X77.351 Y128.551 E262.22464
G1 X77.230 Y128.599 E262.22897
G1 X77.118 Y128.660 E262.23321
G1 X77.023 Y128.729 E262.23712
G1 X76.198 Y129.500 E262.27468
G1 X53.353 Y129.500 E263.03450
G1 X52.892 Y129.458 E263.04990
G1 X52.361 Y129.315 E263.06819
G1 X51.854 Y129.081 E263.08676
G1 X51.388 Y128.756 E263.10566
G1 X50.996 Y128.360 E263.12419
G1 X50.678 Y127.908 E263.14257
G1 X50.439 Y127.398 E263.16131
G1 X50.271 Y126.769 E263.18296
G1 X50.262 Y125.513 E263.22474
G1 X40.123 Y125.500 E263.56196
G1 X37.054 Y125.500 E263.66404
G1 X37.054 Y85.499 E264.99447
G0 F9000 X37.454 Y85.899
G1 F1800 X76.040 Y85.899 E266.27785
G1 X76.765 Y86.576 E266.31084
G1 X76.911 Y86.682 E266.31684
G1 X77.057 Y86.762 E266.32238
G1 X77.227 Y86.828 E266.32845
G1 X77.394 Y86.871 E266.33418
G1 X77.568 Y86.893 E266.34002
G1 X77.740 Y86.893 E266.34574
G1 X77.915 Y86.871 E266.35160
G1 X78.079 Y86.829 E266.35723
G1 X78.251 Y86.762 E266.36337
G1 X78.399 Y86.681 E266.36898
G1 X78.539 Y86.579 E266.37475
G1 X79.269 Y85.899 E266.40793
G1 X176.045 Y85.899 E269.62671
G1 X176.045 Y88.399 E269.70986
G1 X177.545 Y88.399 E269.75975
