;Generated with Cura_SteamEngine 15.01
G28 ; Home extruder
G1 Z15 F100
M107 ; Turn off fan
G90 ; Absolute positioning
M82 ; Extruder in absolute mode
M190 S50
; Activate all used extruder
M104 T0 S200
G92 E0 ; Reset extruder position
; Wait for all used extruders to reach temperature
M109 T0 S200
G28 ; Home extruder
;Layer count: 20
;LAYER:0
M107
G0 F9000 X63.613 Y77.087 Z0.200
;TYPE:SKIRT
G1 F1800 X70.892 Y74.093 E0.26178
G1 X70.963 Y74.075 E0.26422
G1 X72.036 Y72.676 E0.32286
G1 X73.642 Y71.070 E0.39840
G1 X75.442 Y69.690 E0.47384
G1 X77.404 Y68.557 E0.54919
G1 X79.500 Y67.688 E0.62466
G1 X81.644 Y67.113 E0.69849
G1 X89.587 Y65.980 E0.96535
G1 X89.587 Y65.981 E0.96538
G1 X113.404 Y62.577 E1.76559
G1 X114.498 Y62.507 E1.80205
G1 X114.498 Y62.506 E1.80208
G1 X117.418 Y62.314 E1.89941
G1 X120.341 Y62.505 E1.99684
G1 X121.709 Y62.597 E2.04244
G1 X133.944 Y65.031 E2.45735
G1 X137.829 Y65.805 E2.58911
G1 X138.690 Y66.020 E2.61863
G1 X139.375 Y66.201 E2.64219
G1 X140.365 Y66.563 E2.67725
G1 X141.030 Y66.809 E2.70083
G1 X142.031 Y67.300 E2.73792
G1 X142.660 Y67.614 E2.76130
G1 X143.877 Y68.378 E2.80909
G1 X145.217 Y69.372 E2.86458
G1 X146.277 Y70.346 E2.91246
G1 X146.875 Y70.931 E2.94029
G1 X147.555 Y71.744 E2.97554
G1 X148.010 Y72.287 E2.99910
G1 X148.833 Y73.511 E3.04816
G1 X149.473 Y74.643 E3.09141
G1 X149.858 Y75.374 E3.11889
G1 X150.273 Y76.396 E3.15558
G1 X150.532 Y77.048 E3.17891
G1 X150.836 Y78.099 E3.21530
G1 X151.025 Y78.774 E3.23861
G1 X151.213 Y79.819 E3.27393
G1 X151.414 Y80.985 E3.31328
G1 X151.351 Y83.713 E3.40404
G1 X151.210 Y89.964 E3.61200
G1 X150.942 Y91.691 E3.67013
G1 X149.657 Y99.978 E3.94905
G1 X151.106 Y109.333 E4.26391
G1 X151.248 Y115.586 E4.47194
G1 X151.310 Y118.326 E4.56309
G1 X150.923 Y120.535 E4.63768
G1 X150.424 Y122.272 E4.69779
G1 X149.750 Y123.936 E4.75751
G1 X148.912 Y125.515 E4.81696
G1 X147.910 Y127.005 E4.87668
G1 X146.757 Y128.384 E4.93647
G1 X145.467 Y129.635 E4.99624
G1 X144.053 Y130.744 E5.05601
G1 X142.536 Y131.697 E5.11559
G1 X140.921 Y132.492 E5.17546
G1 X139.236 Y133.110 E5.23516
G1 X137.740 Y133.490 E5.28649
G1 X133.837 Y134.265 E5.41884
G1 X121.594 Y136.703 E5.83404
G1 X120.231 Y136.791 E5.87947
G1 X117.319 Y136.982 E5.97653
G1 X114.388 Y136.790 E6.07422
G1 X113.289 Y136.716 E6.11086
G1 X107.754 Y135.927 E6.29682
G1 X99.474 Y134.744 E6.57501
G1 X96.932 Y143.763 E6.88667
G1 X96.530 Y144.955 E6.92851
G1 X95.801 Y146.438 E6.98347
G1 X94.886 Y147.803 E7.03813
G1 X93.814 Y149.023 E7.09214
G1 X92.588 Y150.100 E7.14642
G1 X91.226 Y151.010 E7.20090
G1 X89.765 Y151.731 E7.25509
G1 X88.209 Y152.260 E7.30975
G1 X86.588 Y152.581 E7.36471
G1 X84.961 Y152.683 E7.41893
G1 X83.348 Y152.577 E7.47270
G1 X81.736 Y152.259 E7.52734
G1 X80.188 Y151.730 E7.58175
G1 X78.722 Y151.009 E7.63609
G1 X77.365 Y150.099 E7.69044
G1 X76.134 Y149.022 E7.74484
G1 X75.059 Y147.793 E7.79914
G1 X74.150 Y146.437 E7.85344
G1 X73.426 Y144.966 E7.90797
G1 X73.021 Y143.774 E7.94984
G1 X67.723 Y124.976 E8.59942
G1 X66.446 Y120.441 E8.75613
G1 X62.566 Y117.778 E8.91265
G1 X63.961 Y110.754 E9.15083
G1 X64.066 Y110.214 E9.16912
G1 X63.275 Y108.996 E9.21743
G1 X64.733 Y106.818 E9.30460
G1 X65.266 Y104.099 E9.39676
G1 X66.745 Y103.811 E9.44687
G1 X67.553 Y102.604 E9.49518
G1 X67.286 Y101.182 E9.54331
G1 X69.494 Y99.704 E9.63168
G1 X69.818 Y99.221 E9.65102
G1 X69.790 Y99.193 E9.65234
G1 X69.222 Y98.622 E9.67913
G1 X67.828 Y98.573 E9.72552
G1 X66.868 Y96.257 E9.80891
G1 X64.927 Y94.308 E9.90039
G1 X65.496 Y92.950 E9.94937
G1 X65.181 Y92.191 E9.97670
G1 X64.940 Y91.607 E9.99771
G1 X63.636 Y91.049 E10.04489
G1 X63.623 Y88.407 E10.13276
G1 X62.567 Y85.842 E10.22502
G1 X63.605 Y84.806 E10.27380
G1 X63.603 Y84.382 E10.28790
G1 X63.613 Y77.087 E10.53053
G0 F9000 X64.013 Y77.355
G1 F1800 X71.018 Y74.473 E10.78247
G1 X71.198 Y74.427 E10.78865
G1 X72.338 Y72.941 E10.85094
G1 X73.907 Y71.372 E10.92474
G1 X75.665 Y70.023 E10.99844
G1 X77.581 Y68.917 E11.07202
G1 X79.629 Y68.067 E11.14578
G1 X81.724 Y67.506 E11.21791
G1 X89.643 Y66.376 E11.48397
G1 X89.643 Y66.377 E11.48400
G1 X113.446 Y62.975 E12.28373
G1 X114.524 Y62.906 E12.31966
G1 X114.524 Y62.905 E12.31970
G1 X117.418 Y62.715 E12.41616
G1 X120.315 Y62.904 E12.51272
G1 X121.656 Y62.994 E12.55742
G1 X133.866 Y65.423 E12.97148
G1 X137.741 Y66.195 E13.10290
G1 X138.590 Y66.408 E13.13201
G1 X139.255 Y66.583 E13.15488
G1 X140.227 Y66.938 E13.18930
G1 X140.872 Y67.177 E13.21218
G1 X141.853 Y67.658 E13.24852
G1 X142.464 Y67.964 E13.27125
G1 X143.651 Y68.708 E13.31784
G1 X144.962 Y69.681 E13.37214
G1 X146.002 Y70.636 E13.41910
G1 X146.581 Y71.203 E13.44606
G1 X147.248 Y72.001 E13.48065
G1 X147.690 Y72.528 E13.50353
G1 X148.493 Y73.721 E13.55136
G1 X149.122 Y74.834 E13.59388
G1 X149.495 Y75.542 E13.62049
G1 X149.902 Y76.545 E13.65650
G1 X150.153 Y77.178 E13.67914
G1 X150.451 Y78.208 E13.71481
G1 X150.634 Y78.863 E13.73743
G1 X150.819 Y79.888 E13.77207
G1 X151.014 Y81.015 E13.81011
G1 X150.951 Y83.700 E13.89944
G1 X150.952 Y83.700 E13.89947
G1 X150.811 Y89.928 E14.10667
G1 X150.547 Y91.630 E14.16395
G1 X149.253 Y99.980 E14.44499
G1 X150.707 Y109.368 E14.76096
G1 X150.849 Y115.595 E14.96813
G1 X150.909 Y118.296 E15.05798
G1 X150.533 Y120.445 E15.13054
G1 X150.045 Y122.142 E15.18927
G1 X149.387 Y123.767 E15.24759
G1 X148.569 Y125.309 E15.30564
G1 X147.590 Y126.764 E15.36397
G1 X146.463 Y128.112 E15.42241
G1 X145.203 Y129.333 E15.48077
G1 X143.823 Y130.416 E15.53911
G1 X142.340 Y131.348 E15.59737
G1 X140.763 Y132.124 E15.65583
G1 X139.117 Y132.728 E15.71414
G1 X137.652 Y133.100 E15.76441
G1 X133.759 Y133.873 E15.89642
G1 X121.542 Y136.305 E16.31074
G1 X120.205 Y136.392 E16.35530
G1 X117.319 Y136.581 E16.45149
G1 X114.415 Y136.391 E16.54829
G1 X113.331 Y136.318 E16.58442
G1 X107.811 Y135.531 E16.76988
G1 X99.184 Y134.299 E17.05972
G1 X96.550 Y143.644 E17.38265
G1 X96.160 Y144.803 E17.42332
G1 X95.454 Y146.237 E17.47648
G1 X94.568 Y147.558 E17.52939
G1 X93.531 Y148.740 E17.58169
G1 X92.344 Y149.782 E17.63422
G1 X91.026 Y150.663 E17.68695
G1 X89.611 Y151.361 E17.73942
G1 X88.106 Y151.873 E17.79230
G1 X86.537 Y152.183 E17.84549
G1 X84.962 Y152.282 E17.89798
G1 X83.400 Y152.180 E17.95004
G1 X81.840 Y151.871 E18.00294
G1 X80.342 Y151.360 E18.05558
G1 X78.923 Y150.662 E18.10818
G1 X77.609 Y149.781 E18.16080
G1 X76.417 Y148.739 E18.21345
G1 X75.377 Y147.549 E18.26602
G1 X74.497 Y146.236 E18.31859
G1 X73.797 Y144.813 E18.37134
G1 X73.403 Y143.655 E18.41202
G1 X68.108 Y124.867 E19.06125
G1 X66.792 Y120.194 E19.22272
G1 X63.010 Y117.598 E19.37530
G1 X64.353 Y110.832 E19.60472
G1 X64.490 Y110.133 E19.62842
G1 X63.754 Y109.000 E19.67335
G1 X65.109 Y106.975 E19.75439
G1 X65.606 Y104.440 E19.84031
G1 X66.985 Y104.172 E19.88703
G1 X67.976 Y102.691 E19.94630
G1 X67.728 Y101.367 E19.99111
G1 X69.783 Y99.992 E20.07334
G1 X70.333 Y99.170 E20.10624
G1 X70.073 Y98.910 E20.11847
G1 X69.393 Y98.227 E20.15052
G1 X68.099 Y98.182 E20.19359
G1 X67.207 Y96.032 E20.27101
G1 X65.399 Y94.216 E20.35624
G1 X65.929 Y92.951 E20.40186
G1 X65.551 Y92.039 E20.43469
G1 X65.248 Y91.303 E20.46117
G1 X64.035 Y90.784 E20.50505
G1 X64.023 Y88.327 E20.58677
G1 X63.038 Y85.936 E20.67278
G1 X64.006 Y84.970 E20.71826
G1 X64.003 Y84.382 E20.73782
G1 X64.013 Y77.355 E20.97154
G0 F9000 X64.413 Y77.623
G1 F1800 X71.145 Y74.854 E21.21365
G1 X71.431 Y74.781 E21.22346
G1 X72.639 Y73.205 E21.28951
G1 X74.171 Y71.673 E21.36157
G1 X75.888 Y70.356 E21.43354
G1 X77.759 Y69.276 E21.50540
G1 X79.758 Y68.447 E21.57737
G1 X81.805 Y67.899 E21.64785
G1 X89.698 Y66.772 E21.91304
G1 X113.487 Y63.373 E22.71230
G1 X114.550 Y63.305 E22.74773
G1 X114.550 Y63.304 E22.74776
G1 X117.418 Y63.116 E22.84336
G1 X120.288 Y63.303 E22.93902
G1 X121.603 Y63.392 E22.98285
G1 X133.788 Y65.815 E23.39606
G1 X137.654 Y66.585 E23.52717
G1 X138.491 Y66.795 E23.55587
G1 X139.135 Y66.965 E23.57803
G1 X140.089 Y67.314 E23.61181
G1 X140.715 Y67.545 E23.63401
G1 X141.676 Y68.017 E23.66962
G1 X142.268 Y68.313 E23.69163
G1 X143.425 Y69.039 E23.73706
G1 X144.707 Y69.990 E23.79015
G1 X145.726 Y70.926 E23.83617
G1 X146.287 Y71.475 E23.86228
G1 X146.942 Y72.258 E23.89623
G1 X147.370 Y72.769 E23.91840
G1 X148.152 Y73.932 E23.96501
G1 X148.771 Y75.026 E24.00682
G1 X149.132 Y75.711 E24.03258
G1 X149.531 Y76.694 E24.06786
G1 X149.774 Y77.308 E24.08982
G1 X150.066 Y78.318 E24.12479
G1 X150.244 Y78.953 E24.14673
G1 X150.425 Y79.958 E24.18069
G1 X150.613 Y81.045 E24.21738
G1 X150.552 Y83.695 E24.30554
G1 X150.411 Y89.893 E24.51174
G1 X150.152 Y91.568 E24.56812
G1 X148.848 Y99.980 E24.85124
G1 X150.307 Y109.403 E25.16839
G1 X150.449 Y115.604 E25.37469
G1 X150.509 Y118.265 E25.46321
G1 X150.142 Y120.355 E25.53379
G1 X149.667 Y122.011 E25.59109
G1 X149.024 Y123.597 E25.64801
G1 X148.225 Y125.103 E25.70472
G1 X147.270 Y126.524 E25.76166
G1 X146.170 Y127.839 E25.81868
G1 X144.940 Y129.031 E25.87565
G1 X143.592 Y130.089 E25.93265
G1 X142.145 Y130.998 E25.98948
G1 X140.606 Y131.755 E26.04653
G1 X138.999 Y132.345 E26.10346
G1 X137.564 Y132.709 E26.15270
G1 X133.681 Y133.481 E26.28438
G1 X121.490 Y135.908 E26.69781
G1 X120.179 Y135.993 E26.74151
G1 X117.319 Y136.180 E26.83683
G1 X114.441 Y135.992 E26.93276
G1 X113.373 Y135.920 E26.96836
G1 X107.867 Y135.135 E27.15335
G1 X98.894 Y133.853 E27.45482
G1 X96.168 Y143.526 E27.78908
G1 X95.789 Y144.650 E27.82853
G1 X95.106 Y146.037 E27.87995
G1 X94.251 Y147.314 E27.93106
G1 X93.247 Y148.456 E27.98164
G1 X92.100 Y149.464 E28.03243
G1 X90.825 Y150.315 E28.08341
G1 X89.458 Y150.991 E28.13413
G1 X88.002 Y151.486 E28.18528
G1 X86.485 Y151.786 E28.23672
G1 X84.962 Y151.882 E28.28747
G1 X83.452 Y151.782 E28.33780
G1 X81.944 Y151.484 E28.38893
G1 X80.495 Y150.990 E28.43985
G1 X79.123 Y150.314 E28.49072
G1 X77.853 Y149.463 E28.54157
G1 X76.701 Y148.455 E28.59248
G1 X75.695 Y147.305 E28.64330
G1 X74.845 Y146.036 E28.69410
G1 X74.167 Y144.659 E28.74515
G1 X73.785 Y143.537 E28.78457
G1 X68.493 Y124.759 E29.43346
G1 X67.138 Y119.946 E29.59976
G1 X63.453 Y117.417 E29.74841
G1 X64.745 Y110.910 E29.96906
G1 X64.914 Y110.051 E29.99818
G1 X64.233 Y109.003 E30.03975
G1 X65.486 Y107.130 E30.11470
G1 X65.947 Y104.781 E30.19432
G1 X67.225 Y104.533 E30.23762
G1 X68.400 Y102.778 E30.30786
G1 X68.170 Y101.553 E30.34932
G1 X70.071 Y100.281 E30.42539
G1 X70.849 Y99.119 E30.47190
G1 X70.356 Y98.628 E30.49505
G1 X69.565 Y97.833 E30.53235
G1 X68.370 Y97.791 E30.57212
G1 X67.546 Y95.806 E30.64360
G1 X65.872 Y94.124 E30.72253
G1 X66.363 Y92.953 E30.76476
G1 X65.920 Y91.886 E30.80319
G1 X65.555 Y90.999 E30.83509
G1 X64.433 Y90.519 E30.87568
G1 X64.422 Y88.246 E30.95128
G1 X63.510 Y86.031 E31.03095
G1 X64.407 Y85.136 E31.07310
G1 X64.403 Y84.381 E31.09821
G1 X64.413 Y77.623 E31.32298
G0 F9000 X64.812 Y77.891
G1 F1800 X71.271 Y75.234 E31.55528
G1 X71.664 Y75.133 E31.56877
G1 X72.941 Y73.469 E31.63854
G1 X74.435 Y71.975 E31.70881
G1 X76.110 Y70.690 E31.77902
G1 X77.936 Y69.635 E31.84917
G1 X79.887 Y68.826 E31.91941
G1 X81.885 Y68.291 E31.98821
G1 X89.755 Y67.168 E32.25262
G1 X113.528 Y63.771 E33.05134
G1 X114.585 Y63.703 E33.08657
G1 X117.418 Y63.517 E33.18100
G1 X120.262 Y63.702 E33.27579
G1 X121.550 Y63.789 E33.31873
G1 X133.710 Y66.207 E33.73109
G1 X137.566 Y66.976 E33.86187
G1 X138.391 Y67.182 E33.89015
G1 X139.015 Y67.347 E33.91162
G1 X139.951 Y67.689 E33.94476
G1 X140.557 Y67.913 E33.96625
G1 X141.498 Y68.375 E34.00112
G1 X142.072 Y68.662 E34.02246
G1 X143.200 Y69.369 E34.06674
G1 X144.452 Y70.298 E34.11859
G1 X145.451 Y71.217 E34.16374
G1 X145.993 Y71.747 E34.18895
G1 X146.635 Y72.515 E34.22225
G1 X147.050 Y73.010 E34.24373
G1 X147.812 Y74.142 E34.28912
G1 X148.420 Y75.218 E34.33022
G1 X148.768 Y75.880 E34.35510
G1 X149.159 Y76.843 E34.38967
G1 X149.395 Y77.437 E34.41092
G1 X149.682 Y78.427 E34.44521
G1 X149.854 Y79.042 E34.46645
G1 X150.031 Y80.027 E34.49973
G1 X150.212 Y81.074 E34.53507
G1 X150.152 Y83.686 E34.62197
G1 X150.012 Y89.858 E34.82731
G1 X149.757 Y91.507 E34.88280
G1 X148.443 Y99.978 E35.16792
G1 X149.908 Y109.439 E35.48634
G1 X150.049 Y115.613 E35.69175
G1 X150.108 Y118.235 E35.77898
G1 X149.752 Y120.265 E35.84753
G1 X149.288 Y121.880 E35.90341
G1 X148.661 Y123.428 E35.95896
G1 X147.881 Y124.897 E36.01428
G1 X146.950 Y126.283 E36.06982
G1 X145.876 Y127.566 E36.12547
G1 X144.676 Y128.729 E36.18105
G1 X143.362 Y129.761 E36.23662
G1 X141.950 Y130.648 E36.29208
G1 X140.448 Y131.387 E36.34776
G1 X138.880 Y131.962 E36.40330
G1 X137.476 Y132.319 E36.45149
G1 X133.603 Y133.088 E36.58282
G1 X121.438 Y135.510 E36.99537
G1 X120.153 Y135.594 E37.03820
G1 X117.319 Y135.779 E37.13266
G1 X114.468 Y135.593 E37.22768
G1 X113.415 Y135.522 E37.26279
G1 X107.924 Y134.739 E37.44727
G1 X98.604 Y133.408 E37.76040
G1 X95.786 Y143.408 E38.10595
G1 X95.418 Y144.497 E38.14418
G1 X94.759 Y145.836 E38.19382
G1 X93.933 Y147.070 E38.24321
G1 X92.964 Y148.173 E38.29204
G1 X91.855 Y149.146 E38.34111
G1 X90.625 Y149.968 E38.39032
G1 X89.304 Y150.620 E38.43931
G1 X87.898 Y151.099 E38.48872
G1 X86.433 Y151.388 E38.53838
G1 X84.963 Y151.481 E38.58737
G1 X83.504 Y151.385 E38.63600
G1 X82.048 Y151.097 E38.68537
G1 X80.649 Y150.619 E38.73454
G1 X79.324 Y149.967 E38.78366
G1 X78.097 Y149.145 E38.83278
G1 X76.985 Y148.172 E38.88192
G1 X76.013 Y147.061 E38.93102
G1 X75.192 Y145.835 E38.98010
G1 X74.538 Y144.506 E39.02936
G1 X74.167 Y143.418 E39.06759
G1 X68.878 Y124.650 E39.71613
G1 X67.484 Y119.699 E39.88721
G1 X63.897 Y117.237 E40.03191
G1 X65.138 Y110.988 E40.24381
G1 X65.338 Y109.969 E40.27835
G1 X64.712 Y109.006 E40.31655
G1 X65.864 Y107.285 E40.38543
G1 X66.288 Y105.123 E40.45871
G1 X67.465 Y104.894 E40.49859
G1 X68.823 Y102.865 E40.57980
G1 X68.612 Y101.739 E40.61790
G1 X70.360 Y100.569 E40.68786
G1 X71.364 Y99.068 E40.74792
G1 X70.639 Y98.345 E40.78198
G1 X69.737 Y97.439 E40.82450
G1 X68.641 Y97.401 E40.86097
G1 X67.885 Y95.579 E40.92658
G1 X66.344 Y94.031 E40.99923
G1 X66.796 Y92.953 E41.03811
G1 X66.290 Y91.733 E41.08204
G1 X65.863 Y90.696 E41.11934
G1 X64.832 Y90.255 E41.15664
G1 X64.822 Y88.167 E41.22608
G1 X63.981 Y86.125 E41.29954
G1 X64.808 Y85.300 E41.33839
G1 X64.803 Y84.380 E41.36899
G1 X64.812 Y77.891 E41.58481
G0 F9000 X65.212 Y78.159
G1 F1800 X71.397 Y75.615 E41.80725
G1 X71.923 Y75.480 E41.82531
G1 X71.990 Y75.365 E41.82974
G1 X73.242 Y73.733 E41.89815
G1 X74.699 Y72.276 E41.96668
G1 X76.333 Y71.023 E42.03517
G1 X78.114 Y69.995 E42.10357
G1 X80.016 Y69.206 E42.17205
G1 X81.965 Y68.684 E42.23916
G1 X89.811 Y67.564 E42.50277
G1 X113.570 Y64.170 E43.30102
G1 X114.611 Y64.102 E43.33572
G1 X117.418 Y63.917 E43.42928
G1 X120.235 Y64.101 E43.52317
G1 X121.498 Y64.186 E43.56528
G1 X133.632 Y66.600 E43.97676
G1 X137.478 Y67.366 E44.10719
G1 X138.292 Y67.570 E44.13510
G1 X138.895 Y67.729 E44.15585
G1 X139.813 Y68.064 E44.18835
G1 X140.399 Y68.281 E44.20913
G1 X141.321 Y68.734 E44.24330
G1 X141.876 Y69.011 E44.26393
G1 X142.974 Y69.700 E44.30704
G1 X144.197 Y70.607 E44.35769
G1 X145.176 Y71.507 E44.40192
G1 X145.699 Y72.019 E44.42626
G1 X146.328 Y72.772 E44.45889
G1 X146.729 Y73.250 E44.47965
G1 X147.471 Y74.352 E44.52383
G1 X148.069 Y75.409 E44.56422
G1 X148.405 Y76.049 E44.58827
G1 X148.788 Y76.992 E44.62212
G1 X149.016 Y77.567 E44.64269
G1 X149.297 Y78.537 E44.67628
G1 X149.463 Y79.132 E44.69683
G1 X149.637 Y80.097 E44.72944
G1 X149.811 Y81.104 E44.76343
G1 X149.752 Y83.676 E44.84900
G1 X149.613 Y89.822 E45.05347
G1 X149.361 Y91.446 E45.10813
G1 X148.038 Y99.977 E45.39526
G1 X149.509 Y109.474 E45.71490
G1 X149.649 Y115.622 E45.91943
G1 X149.707 Y118.205 E46.00537
G1 X149.362 Y120.175 E46.07189
G1 X148.909 Y121.750 E46.12640
G1 X148.298 Y123.259 E46.18054
G1 X147.538 Y124.691 E46.23446
G1 X146.629 Y126.043 E46.28865
G1 X145.583 Y127.294 E46.34289
G1 X144.413 Y128.428 E46.39708
G1 X143.131 Y129.433 E46.45126
G1 X141.755 Y130.298 E46.50532
G1 X140.290 Y131.019 E46.55963
G1 X138.762 Y131.580 E46.61376
G1 X137.387 Y131.929 E46.66095
G1 X133.526 Y132.696 E46.79187
G1 X121.385 Y135.113 E47.20361
G1 X120.120 Y135.195 E47.24577
G1 X120.120 Y135.194 E47.24580
G1 X117.319 Y135.379 E47.33917
G1 X114.494 Y135.194 E47.43333
G1 X113.456 Y135.124 E47.46793
G1 X107.980 Y134.343 E47.65191
